fgomes-ima-ufrj/nanostatistics-stress-test/outputs_domain_sensitivity_150_ta099/tables/domain_sensitivity_delta_raw.csv
simulation_id,workflow,domain,y_min,y_max,chains,draws_per_chain,posterior_draws_total,n_obs,pvs_theta,pvs_pred,pvs_joint,trace_member,pvs_theta_nominal,pvs_pred_nominal,pvs_joint_nominal,delta_pvs_theta_vs_nominal,delta_pvs_pred_vs_nominal,delta_pvs_joint_vs_nominal
0,area,broad,-0.05,1.05,4,3000,12000,288,0.9479166666666666,0.9792612847222222,0.9282728587962963,trace_pvs_sdescriptor_mismatch_nominal_sim0.nc,0.78025,0.8989134837962963,0.7018382523148148,0.16766666666666663,0.08034780092592586,0.2264346064814815
0,area,narrow,0.02,0.98,4,3000,12000,288,0.5528333333333333,0.8261987847222222,0.45784693287037037,trace_pvs_sdescriptor_mismatch_nominal_sim0.nc,0.78025,0.8989134837962963,0.7018382523148148,-0.2274166666666667,-0.07271469907407413,-0.2439913194444444
0,area,nominal,0.0,1.0,4,3000,12000,288,0.78025,0.8989134837962963,0.7018382523148148,trace_pvs_sdescriptor_mismatch_nominal_sim0.nc,0.78025,0.8989134837962963,0.7018382523148148,0.0,0.0,0.0
1,area,broad,-0.05,1.05,4,3000,12000,288,0.94625,0.9665989583333333,0.9146550925925926,trace_pvs_sdescriptor_mismatch_nominal_sim1.nc,0.7225833333333334,0.8555584490740741,0.6188127893518518,0.22366666666666668,0.11104050925925923,0.2958423032407408
1,area,narrow,0.02,0.98,4,3000,12000,288,0.47075,0.7808729745370371,0.36847714120370373,trace_pvs_sdescriptor_mismatch_nominal_sim1.nc,0.7225833333333334,0.8555584490740741,0.6188127893518518,-0.25183333333333335,-0.074685474537037,-0.25033564814814807
1,area,nominal,0.0,1.0,4,3000,12000,288,0.7225833333333334,0.8555584490740741,0.6188127893518518,trace_pvs_sdescriptor_mismatch_nominal_sim1.nc,0.7225833333333334,0.8555584490740741,0.6188127893518518,0.0,0.0,0.0
2,area,broad,-0.05,1.05,4,3000,12000,288,0.9630833333333333,0.9840228587962963,0.9477120949074074,trace_pvs_sdescriptor_mismatch_nominal_sim2.nc,0.82525,0.9099606481481481,0.7512815393518518,0.13783333333333325,0.07406221064814811,0.19643055555555555
2,area,narrow,0.02,0.98,4,3000,12000,288,0.63375,0.8391142939814815,0.5327540509259259,trace_pvs_sdescriptor_mismatch_nominal_sim2.nc,0.82525,0.9099606481481481,0.7512815393518518,-0.1915,-0.07084635416666663,-0.21852748842592595
2,area,nominal,0.0,1.0,4,3000,12000,288,0.82525,0.9099606481481481,0.7512815393518518,trace_pvs_sdescriptor_mismatch_nominal_sim2.nc,0.82525,0.9099606481481481,0.7512815393518518,0.0,0.0,0.0
3,area,broad,-0.05,1.05,4,3000,12000,288,0.97525,0.975996238425926,0.9518512731481481,trace_pvs_sdescriptor_mismatch_nominal_sim3.nc,0.8316666666666667,0.8823735532407407,0.7341429398148148,0.14358333333333329,0.09362268518518524,0.21770833333333328
3,area,narrow,0.02,0.98,4,3000,12000,288,0.5955833333333334,0.8150413773148149,0.4861493055555556,trace_pvs_sdescriptor_mismatch_nominal_sim3.nc,0.8316666666666667,0.8823735532407407,0.7341429398148148,-0.2360833333333333,-0.06733217592592589,-0.24799363425925924
3,area,nominal,0.0,1.0,4,3000,12000,288,0.8316666666666667,0.8823735532407407,0.7341429398148148,trace_pvs_sdescriptor_mismatch_nominal_sim3.nc,0.8316666666666667,0.8823735532407407,0.7341429398148148,0.0,0.0,0.0
4,area,broad,-0.05,1.05,4,3000,12000,288,0.9695,0.9812951388888889,0.9513634259259259,trace_pvs_sdescriptor_mismatch_nominal_sim4.nc,0.8436666666666667,0.9171782407407407,0.7740755208333333,0.12583333333333335,0.06411689814814814,0.17728790509259262
4,area,narrow,0.02,0.98,4,3000,12000,288,0.6748333333333333,0.8561594328703703,0.5785865162037037,trace_pvs_sdescriptor_mismatch_nominal_sim4.nc,0.8436666666666667,0.9171782407407407,0.7740755208333333,-0.1688333333333334,-0.061018807870370395,-0.1954890046296296
4,area,nominal,0.0,1.0,4,3000,12000,288,0.8436666666666667,0.9171782407407407,0.7740755208333333,trace_pvs_sdescriptor_mismatch_nominal_sim4.nc,0.8436666666666667,0.9171782407407407,0.7740755208333333,0.0,0.0,0.0
5,area,broad,-0.05,1.05,4,3000,12000,288,0.9408333333333333,0.9811869212962963,0.9231461226851851,trace_pvs_sdescriptor_mismatch_nominal_sim5.nc,0.74875,0.9176166087962963,0.6874479166666667,0.19208333333333327,0.0635703125,0.23569820601851843
5,area,narrow,0.02,0.98,4,3000,12000,288,0.5434166666666667,0.8600491898148148,0.46821412037037036,trace_pvs_sdescriptor_mismatch_nominal_sim5.nc,0.74875,0.9176166087962963,0.6874479166666667,-0.20533333333333337,-0.05756741898148143,-0.21923379629629636
5,area,nominal,0.0,1.0,4,3000,12000,288,0.74875,0.9176166087962963,0.6874479166666667,trace_pvs_sdescriptor_mismatch_nominal_sim5.nc,0.74875,0.9176166087962963,0.6874479166666667,0.0,0.0,0.0
6,area,broad,-0.05,1.05,4,3000,12000,288,0.969,0.9837650462962962,0.9532826967592593,trace_pvs_sdescriptor_mismatch_nominal_sim6.nc,0.8509166666666667,0.9305043402777777,0.7920202546296297,0.11808333333333332,0.05326070601851851,0.1612624421296296
6,area,narrow,0.02,0.98,4,3000,12000,288,0.6855,0.8772679398148148,0.60215625,trace_pvs_sdescriptor_mismatch_nominal_sim6.nc,0.8509166666666667,0.9305043402777777,0.7920202546296297,-0.16541666666666666,-0.05323640046296296,-0.1898640046296297
6,area,nominal,0.0,1.0,4,3000,12000,288,0.8509166666666667,0.9305043402777777,0.7920202546296297,trace_pvs_sdescriptor_mismatch_nominal_sim6.nc,0.8509166666666667,0.9305043402777777,0.7920202546296297,0.0,0.0,0.0
7,area,broad,-0.05,1.05,4,3000,12000,288,0.9539166666666666,0.9712725694444444,0.9265578703703704,trace_pvs_sdescriptor_mismatch_nominal_sim7.nc,0.70375,0.8635784143518519,0.6083946759259259,0.25016666666666665,0.1076941550925925,0.3181631944444445
7,area,narrow,0.02,0.98,4,3000,12000,288,0.37366666666666665,0.7858368055555556,0.29460734953703704,trace_pvs_sdescriptor_mismatch_nominal_sim7.nc,0.70375,0.8635784143518519,0.6083946759259259,-0.33008333333333334,-0.07774160879629632,-0.31378732638888884
7,area,nominal,0.0,1.0,4,3000,12000,288,0.70375,0.8635784143518519,0.6083946759259259,trace_pvs_sdescriptor_mismatch_nominal_sim7.nc,0.70375,0.8635784143518519,0.6083946759259259,0.0,0.0,0.0
8,area,broad,-0.05,1.05,4,3000,12000,288,0.9443333333333334,0.983574363425926,0.9288877314814815,trace_pvs_sdescriptor_mismatch_nominal_sim8.nc,0.7406666666666667,0.9162766203703704,0.6792201967592593,0.20366666666666666,0.06729774305555558,0.24966753472222225
8,area,narrow,0.02,0.98,4,3000,12000,288,0.5120833333333333,0.8573038194444444,0.4401336805555556,trace_pvs_sdescriptor_mismatch_nominal_sim8.nc,0.7406666666666667,0.9162766203703704,0.6792201967592593,-0.22858333333333336,-0.05897280092592594,-0.2390865162037037
8,area,nominal,0.0,1.0,4,3000,12000,288,0.7406666666666667,0.9162766203703704,0.6792201967592593,trace_pvs_sdescriptor_mismatch_nominal_sim8.nc,0.7406666666666667,0.9162766203703704,0.6792201967592593,0.0,0.0,0.0
9,area,broad,-0.05,1.05,4,3000,12000,288,0.9608333333333333,0.9652546296296296,0.927535300925926,trace_pvs_sdescriptor_mismatch_nominal_sim9.nc,0.7628333333333334,0.860011863425926,0.6565300925925925,0.19799999999999995,0.10524276620370365,0.2710052083333334
9,area,narrow,0.02,0.98,4,3000,12000,288,0.52125,0.7871168981481481,0.41103993055555554,trace_pvs_sdescriptor_mismatch_nominal_sim9.nc,0.7628333333333334,0.860011863425926,0.6565300925925925,-0.24158333333333337,-0.07289496527777783,-0.245490162037037
9,area,nominal,0.0,1.0,4,3000,12000,288,0.7628333333333334,0.860011863425926,0.6565300925925925,trace_pvs_sdescriptor_mismatch_nominal_sim9.nc,0.7628333333333334,0.860011863425926,0.6565300925925925,0.0,0.0,0.0
10,area,broad,-0.05,1.05,4,3000,12000,288,0.9010833333333333,0.931765625,0.8396154513888889,trace_pvs_sdescriptor_mismatch_nominal_sim10.nc,0.4766666666666667,0.7442543402777778,0.3551417824074074,0.42441666666666666,0.18751128472222223,0.48447366898148153
10,area,narrow,0.02,0.98,4,3000,12000,288,0.22575,0.6681657986111111,0.1511495949074074,trace_pvs_sdescriptor_mismatch_nominal_sim10.nc,0.4766666666666667,0.7442543402777778,0.3551417824074074,-0.2509166666666667,-0.07608854166666668,-0.2039921875
10,area,nominal,0.0,1.0,4,3000,12000,288,0.4766666666666667,0.7442543402777778,0.3551417824074074,trace_pvs_sdescriptor_mismatch_nominal_sim10.nc,0.4766666666666667,0.7442543402777778,0.3551417824074074,0.0,0.0,0.0
11,area,broad,-0.05,1.05,4,3000,12000,288,0.9895,0.9884716435185186,0.9781024305555556,trace_pvs_sdescriptor_mismatch_nominal_sim11.nc,0.94025,0.9556365740740741,0.8986869212962963,0.049250000000000016,0.032835069444444476,0.07941550925925922
11,area,narrow,0.02,0.98,4,3000,12000,288,0.8611666666666666,0.9208712384259259,0.7934343171296296,trace_pvs_sdescriptor_mismatch_nominal_sim11.nc,0.94025,0.9556365740740741,0.8986869212962963,-0.0790833333333334,-0.03476533564814821,-0.10525260416666671
11,area,nominal,0.0,1.0,4,3000,12000,288,0.94025,0.9556365740740741,0.8986869212962963,trace_pvs_sdescriptor_mismatch_nominal_sim11.nc,0.94025,0.9556365740740741,0.8986869212962963,0.0,0.0,0.0
12,area,broad,-0.05,1.05,4,3000,12000,288,0.9335833333333333,0.9385798611111111,0.876359375,trace_pvs_sdescriptor_mismatch_nominal_sim12.nc,0.5385,0.7527546296296296,0.40584403935185187,0.39508333333333334,0.18582523148148156,0.4705153356481482
12,area,narrow,0.02,0.98,4,3000,12000,288,0.26466666666666666,0.6604322916666666,0.17541550925925925,trace_pvs_sdescriptor_mismatch_nominal_sim12.nc,0.5385,0.7527546296296296,0.40584403935185187,-0.2738333333333333,-0.09232233796296296,-0.23042853009259262
12,area,nominal,0.0,1.0,4,3000,12000,288,0.5385,0.7527546296296296,0.40584403935185187,trace_pvs_sdescriptor_mismatch_nominal_sim12.nc,0.5385,0.7527546296296296,0.40584403935185187,0.0,0.0,0.0
13,area,broad,-0.05,1.05,4,3000,12000,288,0.9915,0.9910399305555555,0.9826085069444445,trace_pvs_sdescriptor_mismatch_nominal_sim13.nc,0.9470833333333334,0.9282650462962962,0.8792641782407408,0.04441666666666666,0.06277488425925926,0.10334432870370369
13,area,narrow,0.02,0.98,4,3000,12000,288,0.8486666666666667,0.8560335648148149,0.7271177662037037,trace_pvs_sdescriptor_mismatch_nominal_sim13.nc,0.9470833333333334,0.9282650462962962,0.8792641782407408,-0.09841666666666671,-0.0722314814814814,-0.15214641203703705
13,area,nominal,0.0,1.0,4,3000,12000,288,0.9470833333333334,0.9282650462962962,0.8792641782407408,trace_pvs_sdescriptor_mismatch_nominal_sim13.nc,0.9470833333333334,0.9282650462962962,0.8792641782407408,0.0,0.0,0.0
14,area,broad,-0.05,1.05,4,3000,12000,288,0.9876666666666667,0.9708579282407407,0.9589059606481481,trace_pvs_sdescriptor_mismatch_nominal_sim14.nc,0.8845833333333334,0.8720717592592593,0.7718156828703704,0.1030833333333333,0.0987861689814814,0.18709027777777776
14,area,narrow,0.02,0.98,4,3000,12000,288,0.5459166666666667,0.7820026041666667,0.42897251157407407,trace_pvs_sdescriptor_mismatch_nominal_sim14.nc,0.8845833333333334,0.8720717592592593,0.7718156828703704,-0.33866666666666667,-0.09006915509259261,-0.3428431712962963
14,area,nominal,0.0,1.0,4,3000,12000,288,0.8845833333333334,0.8720717592592593,0.7718156828703704,trace_pvs_sdescriptor_mismatch_nominal_sim14.nc,0.8845833333333334,0.8720717592592593,0.7718156828703704,0.0,0.0,0.0
15,area,broad,-0.05,1.05,4,3000,12000,288,0.9816666666666667,0.9763993055555555,0.9585109953703703,trace_pvs_sdescriptor_mismatch_nominal_sim15.nc,0.8636666666666667,0.8811571180555555,0.7614120370370371,0.118,0.09524218750000002,0.19709895833333324
15,area,narrow,0.02,0.98,4,3000,12000,288,0.6314166666666666,0.8082300347222222,0.5114192708333334,trace_pvs_sdescriptor_mismatch_nominal_sim15.nc,0.8636666666666667,0.8811571180555555,0.7614120370370371,-0.23225000000000007,-0.07292708333333331,-0.2499927662037037
15,area,nominal,0.0,1.0,4,3000,12000,288,0.8636666666666667,0.8811571180555555,0.7614120370370371,trace_pvs_sdescriptor_mismatch_nominal_sim15.nc,0.8636666666666667,0.8811571180555555,0.7614120370370371,0.0,0.0,0.0
16,area,broad,-0.05,1.05,4,3000,12000,288,0.9494166666666667,0.9579036458333333,0.9095245949074074,trace_pvs_sdescriptor_mismatch_nominal_sim16.nc,0.6568333333333334,0.8227511574074075,0.5409800347222222,0.2925833333333333,0.13515248842592587,0.3685445601851852
16,area,narrow,0.02,0.98,4,3000,12000,288,0.361,0.7345674189814815,0.2659542824074074,trace_pvs_sdescriptor_mismatch_nominal_sim16.nc,0.6568333333333334,0.8227511574074075,0.5409800347222222,-0.2958333333333334,-0.08818373842592597,-0.2750257523148148
16,area,nominal,0.0,1.0,4,3000,12000,288,0.6568333333333334,0.8227511574074075,0.5409800347222222,trace_pvs_sdescriptor_mismatch_nominal_sim16.nc,0.6568333333333334,0.8227511574074075,0.5409800347222222,0.0,0.0,0.0
17,area,broad,-0.05,1.05,4,3000,12000,288,0.9496666666666667,0.9826741898148148,0.9332256944444445,trace_pvs_sdescriptor_mismatch_nominal_sim17.nc,0.7799166666666667,0.8992161458333333,0.7016012731481481,0.16974999999999996,0.08345804398148149,0.23162442129629635
17,area,narrow,0.02,0.98,4,3000,12000,288,0.5789166666666666,0.8299809027777778,0.4811241319444444,trace_pvs_sdescriptor_mismatch_nominal_sim17.nc,0.7799166666666667,0.8992161458333333,0.7016012731481481,-0.20100000000000007,-0.0692352430555555,-0.2204771412037037
17,area,nominal,0.0,1.0,4,3000,12000,288,0.7799166666666667,0.8992161458333333,0.7016012731481481,trace_pvs_sdescriptor_mismatch_nominal_sim17.nc,0.7799166666666667,0.8992161458333333,0.7016012731481481,0.0,0.0,0.0
18,area,broad,-0.05,1.05,4,3000,12000,288,0.8854166666666666,0.9835104166666667,0.8708695023148149,trace_pvs_sdescriptor_mismatch_nominal_sim18.nc,0.5476666666666666,0.9216455439814815,0.5053833912037037,0.33775,0.06186487268518526,0.3654861111111112
18,area,narrow,0.02,0.98,4,3000,12000,288,0.28508333333333336,0.8714635416666666,0.24918952546296297,trace_pvs_sdescriptor_mismatch_nominal_sim18.nc,0.5476666666666666,0.9216455439814815,0.5053833912037037,-0.2625833333333333,-0.050182002314814844,-0.2561938657407407
18,area,nominal,0.0,1.0,4,3000,12000,288,0.5476666666666666,0.9216455439814815,0.5053833912037037,trace_pvs_sdescriptor_mismatch_nominal_sim18.nc,0.5476666666666666,0.9216455439814815,0.5053833912037037,0.0,0.0,0.0
19,area,broad,-0.05,1.05,4,3000,12000,288,0.9621666666666666,0.9735211226851852,0.9367120949074074,trace_pvs_sdescriptor_mismatch_nominal_sim19.nc,0.8135833333333333,0.8922282986111111,0.7262476851851852,0.1485833333333333,0.08129282407407412,0.21046440972222213
19,area,narrow,0.02,0.98,4,3000,12000,288,0.6220833333333333,0.8285868055555555,0.5162476851851852,trace_pvs_sdescriptor_mismatch_nominal_sim19.nc,0.8135833333333333,0.8922282986111111,0.7262476851851852,-0.1915,-0.06364149305555555,-0.21000000000000008
19,area,nominal,0.0,1.0,4,3000,12000,288,0.8135833333333333,0.8922282986111111,0.7262476851851852,trace_pvs_sdescriptor_mismatch_nominal_sim19.nc,0.8135833333333333,0.8922282986111111,0.7262476851851852,0.0,0.0,0.0
20,area,broad,-0.05,1.05,4,3000,12000,288,0.9734166666666667,0.9784982638888889,0.9524861111111111,trace_pvs_sdescriptor_mismatch_nominal_sim20.nc,0.8463333333333334,0.8943237847222222,0.7572002314814815,0.12708333333333333,0.08417447916666676,0.19528587962962962
20,area,narrow,0.02,0.98,4,3000,12000,288,0.6431666666666667,0.8213602430555556,0.5294322916666667,trace_pvs_sdescriptor_mismatch_nominal_sim20.nc,0.8463333333333334,0.8943237847222222,0.7572002314814815,-0.20316666666666672,-0.07296354166666663,-0.2277679398148148
20,area,nominal,0.0,1.0,4,3000,12000,288,0.8463333333333334,0.8943237847222222,0.7572002314814815,trace_pvs_sdescriptor_mismatch_nominal_sim20.nc,0.8463333333333334,0.8943237847222222,0.7572002314814815,0.0,0.0,0.0
21,area,broad,-0.05,1.05,4,3000,12000,288,0.9713333333333334,0.9911941550925926,0.9627942708333334,trace_pvs_sdescriptor_mismatch_nominal_sim21.nc,0.85825,0.9468778935185185,0.8128052662037037,0.11308333333333342,0.04431626157407409,0.1499890046296296
21,area,narrow,0.02,0.98,4,3000,12000,288,0.7015833333333333,0.8977025462962963,0.6303075810185185,trace_pvs_sdescriptor_mismatch_nominal_sim21.nc,0.85825,0.9468778935185185,0.8128052662037037,-0.15666666666666662,-0.049175347222222165,-0.18249768518518528
21,area,nominal,0.0,1.0,4,3000,12000,288,0.85825,0.9468778935185185,0.8128052662037037,trace_pvs_sdescriptor_mismatch_nominal_sim21.nc,0.85825,0.9468778935185185,0.8128052662037037,0.0,0.0,0.0
22,area,broad,-0.05,1.05,4,3000,12000,288,0.978,0.98475,0.9631174768518519,trace_pvs_sdescriptor_mismatch_nominal_sim22.nc,0.8028333333333333,0.933863425925926,0.7504586226851852,0.1751666666666667,0.05088657407407404,0.21265885416666674
22,area,narrow,0.02,0.98,4,3000,12000,288,0.49425,0.8842728587962962,0.4384537037037037,trace_pvs_sdescriptor_mismatch_nominal_sim22.nc,0.8028333333333333,0.933863425925926,0.7504586226851852,-0.30858333333333327,-0.049590567129629726,-0.31200491898148147
22,area,nominal,0.0,1.0,4,3000,12000,288,0.8028333333333333,0.933863425925926,0.7504586226851852,trace_pvs_sdescriptor_mismatch_nominal_sim22.nc,0.8028333333333333,0.933863425925926,0.7504586226851852,0.0,0.0,0.0
23,area,broad,-0.05,1.05,4,3000,12000,288,0.9770833333333333,0.9841802662037037,0.9616383101851852,trace_pvs_sdescriptor_mismatch_nominal_sim23.nc,0.8713333333333333,0.9146944444444445,0.7971889467592592,0.10575000000000001,0.06948582175925921,0.16444936342592598
23,area,narrow,0.02,0.98,4,3000,12000,288,0.7111666666666666,0.8447913773148148,0.6015674189814815,trace_pvs_sdescriptor_mismatch_nominal_sim23.nc,0.8713333333333333,0.9146944444444445,0.7971889467592592,-0.16016666666666668,-0.06990306712962968,-0.19562152777777775
23,area,nominal,0.0,1.0,4,3000,12000,288,0.8713333333333333,0.9146944444444445,0.7971889467592592,trace_pvs_sdescriptor_mismatch_nominal_sim23.nc,0.8713333333333333,0.9146944444444445,0.7971889467592592,0.0,0.0,0.0
24,area,broad,-0.05,1.05,4,3000,12000,288,0.9599166666666666,0.9793373842592593,0.9400720486111112,trace_pvs_sdescriptor_mismatch_nominal_sim24.nc,0.7849166666666667,0.8786148726851852,0.6900289351851852,0.17499999999999993,0.10072251157407408,0.250043113425926
24,area,narrow,0.02,0.98,4,3000,12000,288,0.566,0.7998802083333333,0.453306712962963,trace_pvs_sdescriptor_mismatch_nominal_sim24.nc,0.7849166666666667,0.8786148726851852,0.6900289351851852,-0.21891666666666676,-0.07873466435185195,-0.23672222222222217
24,area,nominal,0.0,1.0,4,3000,12000,288,0.7849166666666667,0.8786148726851852,0.6900289351851852,trace_pvs_sdescriptor_mismatch_nominal_sim24.nc,0.7849166666666667,0.8786148726851852,0.6900289351851852,0.0,0.0,0.0
25,area,broad,-0.05,1.05,4,3000,12000,288,0.9524166666666667,0.9754490740740741,0.9290697337962963,trace_pvs_sdescriptor_mismatch_nominal_sim25.nc,0.7614166666666666,0.8756452546296296,0.6670787037037037,0.19100000000000006,0.0998038194444445,0.2619910300925926
25,area,narrow,0.02,0.98,4,3000,12000,288,0.5390833333333334,0.7963214699074074,0.43007667824074075,trace_pvs_sdescriptor_mismatch_nominal_sim25.nc,0.7614166666666666,0.8756452546296296,0.6670787037037037,-0.22233333333333327,-0.07932378472222223,-0.23700202546296295
25,area,nominal,0.0,1.0,4,3000,12000,288,0.7614166666666666,0.8756452546296296,0.6670787037037037,trace_pvs_sdescriptor_mismatch_nominal_sim25.nc,0.7614166666666666,0.8756452546296296,0.6670787037037037,0.0,0.0,0.0
26,area,broad,-0.05,1.05,4,3000,12000,288,0.9256666666666666,0.9623298611111111,0.8908174189814815,trace_pvs_sdescriptor_mismatch_nominal_sim26.nc,0.6868333333333333,0.8638877314814815,0.5935720486111111,0.23883333333333334,0.09844212962962962,0.29724537037037035
26,area,narrow,0.02,0.98,4,3000,12000,288,0.47475,0.7995219907407407,0.3802320601851852,trace_pvs_sdescriptor_mismatch_nominal_sim26.nc,0.6868333333333333,0.8638877314814815,0.5935720486111111,-0.2120833333333333,-0.06436574074074075,-0.21333998842592594
26,area,nominal,0.0,1.0,4,3000,12000,288,0.6868333333333333,0.8638877314814815,0.5935720486111111,trace_pvs_sdescriptor_mismatch_nominal_sim26.nc,0.6868333333333333,0.8638877314814815,0.5935720486111111,0.0,0.0,0.0
27,area,broad,-0.05,1.05,4,3000,12000,288,0.93725,0.9833347800925926,0.9216686921296297,trace_pvs_sdescriptor_mismatch_nominal_sim27.nc,0.7599166666666667,0.9394560185185186,0.7141999421296297,0.17733333333333334,0.043878761574074,0.20746874999999998
27,area,narrow,0.02,0.98,4,3000,12000,288,0.5803333333333334,0.8982311921296297,0.5219519675925925,trace_pvs_sdescriptor_mismatch_nominal_sim27.nc,0.7599166666666667,0.9394560185185186,0.7141999421296297,-0.17958333333333332,-0.04122482638888891,-0.19224797453703713
27,area,nominal,0.0,1.0,4,3000,12000,288,0.7599166666666667,0.9394560185185186,0.7141999421296297,trace_pvs_sdescriptor_mismatch_nominal_sim27.nc,0.7599166666666667,0.9394560185185186,0.7141999421296297,0.0,0.0,0.0
28,area,broad,-0.05,1.05,4,3000,12000,288,0.9275,0.969359375,0.8991195023148149,trace_pvs_sdescriptor_mismatch_nominal_sim28.nc,0.6783333333333333,0.8851192129629629,0.6008804976851851,0.24916666666666665,0.0842401620370371,0.2982390046296297
28,area,narrow,0.02,0.98,4,3000,12000,288,0.437,0.8227586805555556,0.3604030671296296,trace_pvs_sdescriptor_mismatch_nominal_sim28.nc,0.6783333333333333,0.8851192129629629,0.6008804976851851,-0.24133333333333334,-0.062360532407407354,-0.24047743055555554
28,area,nominal,0.0,1.0,4,3000,12000,288,0.6783333333333333,0.8851192129629629,0.6008804976851851,trace_pvs_sdescriptor_mismatch_nominal_sim28.nc,0.6783333333333333,0.8851192129629629,0.6008804976851851,0.0,0.0,0.0
29,area,broad,-0.05,1.05,4,3000,12000,288,0.9650833333333333,0.9834239004629629,0.9491085069444445,trace_pvs_sdescriptor_mismatch_nominal_sim29.nc,0.8335833333333333,0.9276866319444445,0.7736487268518518,0.13149999999999995,0.05573726851851846,0.17545978009259267
29,area,narrow,0.02,0.98,4,3000,12000,288,0.6738333333333333,0.8764479166666667,0.591089699074074,trace_pvs_sdescriptor_mismatch_nominal_sim29.nc,0.8335833333333333,0.9276866319444445,0.7736487268518518,-0.15975000000000006,-0.05123871527777779,-0.18255902777777777
29,area,nominal,0.0,1.0,4,3000,12000,288,0.8335833333333333,0.9276866319444445,0.7736487268518518,trace_pvs_sdescriptor_mismatch_nominal_sim29.nc,0.8335833333333333,0.9276866319444445,0.7736487268518518,0.0,0.0,0.0
30,area,broad,-0.05,1.05,4,3000,12000,288,0.9804166666666667,0.9802965856481481,0.9611116898148148,trace_pvs_sdescriptor_mismatch_nominal_sim30.nc,0.8665833333333334,0.8963987268518518,0.7771857638888889,0.11383333333333334,0.0838978587962963,0.18392592592592583
30,area,narrow,0.02,0.98,4,3000,12000,288,0.65075,0.8192520254629629,0.5340807291666667,trace_pvs_sdescriptor_mismatch_nominal_sim30.nc,0.8665833333333334,0.8963987268518518,0.7771857638888889,-0.21583333333333332,-0.0771467013888889,-0.24310503472222222
30,area,nominal,0.0,1.0,4,3000,12000,288,0.8665833333333334,0.8963987268518518,0.7771857638888889,trace_pvs_sdescriptor_mismatch_nominal_sim30.nc,0.8665833333333334,0.8963987268518518,0.7771857638888889,0.0,0.0,0.0
31,area,broad,-0.05,1.05,4,3000,12000,288,0.9868333333333333,0.9840905671296296,0.9711313657407408,trace_pvs_sdescriptor_mismatch_nominal_sim31.nc,0.9060833333333334,0.9202552083333333,0.8339644097222222,0.08074999999999999,0.06383535879629632,0.13716695601851858
31,area,narrow,0.02,0.98,4,3000,12000,288,0.7705,0.8589754050925926,0.6623527199074074,trace_pvs_sdescriptor_mismatch_nominal_sim31.nc,0.9060833333333334,0.9202552083333333,0.8339644097222222,-0.1355833333333334,-0.06127980324074067,-0.17161168981481478
31,area,nominal,0.0,1.0,4,3000,12000,288,0.9060833333333334,0.9202552083333333,0.8339644097222222,trace_pvs_sdescriptor_mismatch_nominal_sim31.nc,0.9060833333333334,0.9202552083333333,0.8339644097222222,0.0,0.0,0.0
32,area,broad,-0.05,1.05,4,3000,12000,288,0.9799166666666667,0.9812337962962963,0.9615280671296297,trace_pvs_sdescriptor_mismatch_nominal_sim32.nc,0.8798333333333334,0.9054134837962963,0.7968411458333333,0.1000833333333333,0.07582031249999999,0.16468692129629636
32,area,narrow,0.02,0.98,4,3000,12000,288,0.71975,0.8354195601851852,0.6019560185185185,trace_pvs_sdescriptor_mismatch_nominal_sim32.nc,0.8798333333333334,0.9054134837962963,0.7968411458333333,-0.16008333333333336,-0.06999392361111112,-0.19488512731481478
32,area,nominal,0.0,1.0,4,3000,12000,288,0.8798333333333334,0.9054134837962963,0.7968411458333333,trace_pvs_sdescriptor_mismatch_nominal_sim32.nc,0.8798333333333334,0.9054134837962963,0.7968411458333333,0.0,0.0,0.0
33,area,broad,-0.05,1.05,4,3000,12000,288,0.9914166666666666,0.9588874421296296,0.9506672453703704,trace_pvs_sdescriptor_mismatch_nominal_sim33.nc,0.8585,0.8407282986111111,0.7225390625,0.13291666666666657,0.11815914351851853,0.2281281828703704
33,area,narrow,0.02,0.98,4,3000,12000,288,0.35775,0.7506006944444444,0.27030671296296294,trace_pvs_sdescriptor_mismatch_nominal_sim33.nc,0.8585,0.8407282986111111,0.7225390625,-0.50075,-0.09012760416666665,-0.45223234953703706
33,area,nominal,0.0,1.0,4,3000,12000,288,0.8585,0.8407282986111111,0.7225390625,trace_pvs_sdescriptor_mismatch_nominal_sim33.nc,0.8585,0.8407282986111111,0.7225390625,0.0,0.0,0.0
34,area,broad,-0.05,1.05,4,3000,12000,288,0.94275,0.9701733217592593,0.9147037037037037,trace_pvs_sdescriptor_mismatch_nominal_sim34.nc,0.7324166666666667,0.8805234375,0.645425925925926,0.21033333333333326,0.08964988425925935,0.2692777777777777
34,area,narrow,0.02,0.98,4,3000,12000,288,0.5031666666666667,0.8151767939814815,0.41103269675925924,trace_pvs_sdescriptor_mismatch_nominal_sim34.nc,0.7324166666666667,0.8805234375,0.645425925925926,-0.22925000000000006,-0.06534664351851849,-0.23439322916666672
34,area,nominal,0.0,1.0,4,3000,12000,288,0.7324166666666667,0.8805234375,0.645425925925926,trace_pvs_sdescriptor_mismatch_nominal_sim34.nc,0.7324166666666667,0.8805234375,0.645425925925926,0.0,0.0,0.0
35,area,broad,-0.05,1.05,4,3000,12000,288,0.98425,0.987052662037037,0.971505787037037,trace_pvs_sdescriptor_mismatch_nominal_sim35.nc,0.9150833333333334,0.9370515046296296,0.857621238425926,0.0691666666666666,0.050001157407407404,0.11388454861111108
35,area,narrow,0.02,0.98,4,3000,12000,288,0.8129166666666666,0.8845309606481482,0.7195486111111111,trace_pvs_sdescriptor_mismatch_nominal_sim35.nc,0.9150833333333334,0.9370515046296296,0.857621238425926,-0.10216666666666674,-0.05252054398148143,-0.13807262731481484
35,area,nominal,0.0,1.0,4,3000,12000,288,0.9150833333333334,0.9370515046296296,0.857621238425926,trace_pvs_sdescriptor_mismatch_nominal_sim35.nc,0.9150833333333334,0.9370515046296296,0.857621238425926,0.0,0.0,0.0
36,area,broad,-0.05,1.05,4,3000,12000,288,0.9945833333333334,0.9805199652777777,0.9752161458333334,trace_pvs_sdescriptor_mismatch_nominal_sim36.nc,0.9415833333333333,0.8917123842592592,0.8397939814814814,0.05300000000000005,0.08880758101851849,0.13542216435185195
36,area,narrow,0.02,0.98,4,3000,12000,288,0.79525,0.8147650462962963,0.6488776041666666,trace_pvs_sdescriptor_mismatch_nominal_sim36.nc,0.9415833333333333,0.8917123842592592,0.8397939814814814,-0.14633333333333332,-0.07694733796296294,-0.1909163773148148
36,area,nominal,0.0,1.0,4,3000,12000,288,0.9415833333333333,0.8917123842592592,0.8397939814814814,trace_pvs_sdescriptor_mismatch_nominal_sim36.nc,0.9415833333333333,0.8917123842592592,0.8397939814814814,0.0,0.0,0.0
37,area,broad,-0.05,1.05,4,3000,12000,288,0.9866666666666667,0.989265625,0.9760784143518518,trace_pvs_sdescriptor_mismatch_nominal_sim37.nc,0.9283333333333333,0.9355173611111111,0.868578125,0.05833333333333335,0.05374826388888898,0.10750028935185185
37,area,narrow,0.02,0.98,4,3000,12000,288,0.852,0.8773825231481481,0.7478952546296296,trace_pvs_sdescriptor_mismatch_nominal_sim37.nc,0.9283333333333333,0.9355173611111111,0.868578125,-0.07633333333333336,-0.058134837962962926,-0.1206828703703704
37,area,nominal,0.0,1.0,4,3000,12000,288,0.9283333333333333,0.9355173611111111,0.868578125,trace_pvs_sdescriptor_mismatch_nominal_sim37.nc,0.9283333333333333,0.9355173611111111,0.868578125,0.0,0.0,0.0
38,area,broad,-0.05,1.05,4,3000,12000,288,0.9618333333333333,0.9871875,0.9495107060185185,trace_pvs_sdescriptor_mismatch_nominal_sim38.nc,0.7745,0.9401276041666666,0.7285023148148149,0.18733333333333335,0.047059895833333365,0.22100839120370364
38,area,narrow,0.02,0.98,4,3000,12000,288,0.5429166666666667,0.8902913773148148,0.4841863425925926,trace_pvs_sdescriptor_mismatch_nominal_sim38.nc,0.7745,0.9401276041666666,0.7285023148148149,-0.23158333333333325,-0.04983622685185185,-0.2443159722222223
38,area,nominal,0.0,1.0,4,3000,12000,288,0.7745,0.9401276041666666,0.7285023148148149,trace_pvs_sdescriptor_mismatch_nominal_sim38.nc,0.7745,0.9401276041666666,0.7285023148148149,0.0,0.0,0.0
39,area,broad,-0.05,1.05,4,3000,12000,288,0.9891666666666666,0.9861388888888889,0.9754641203703703,trace_pvs_sdescriptor_mismatch_nominal_sim39.nc,0.9394166666666667,0.929943287037037,0.8736961805555555,0.04974999999999996,0.056195601851851906,0.1017679398148148
39,area,narrow,0.02,0.98,4,3000,12000,288,0.844,0.868162037037037,0.7331961805555556,trace_pvs_sdescriptor_mismatch_nominal_sim39.nc,0.9394166666666667,0.929943287037037,0.8736961805555555,-0.0954166666666667,-0.06178125000000001,-0.14049999999999996
39,area,nominal,0.0,1.0,4,3000,12000,288,0.9394166666666667,0.929943287037037,0.8736961805555555,trace_pvs_sdescriptor_mismatch_nominal_sim39.nc,0.9394166666666667,0.929943287037037,0.8736961805555555,0.0,0.0,0.0
40,area,broad,-0.05,1.05,4,3000,12000,288,0.9,0.9458735532407407,0.8514152199074074,trace_pvs_sdescriptor_mismatch_nominal_sim40.nc,0.5969166666666667,0.8352413194444445,0.49910792824074074,0.30308333333333337,0.11063223379629628,0.3523072916666667
40,area,narrow,0.02,0.98,4,3000,12000,288,0.34891666666666665,0.7683058449074074,0.2687456597222222,trace_pvs_sdescriptor_mismatch_nominal_sim40.nc,0.5969166666666667,0.8352413194444445,0.49910792824074074,-0.248,-0.06693547453703708,-0.23036226851851854
40,area,nominal,0.0,1.0,4,3000,12000,288,0.5969166666666667,0.8352413194444445,0.49910792824074074,trace_pvs_sdescriptor_mismatch_nominal_sim40.nc,0.5969166666666667,0.8352413194444445,0.49910792824074074,0.0,0.0,0.0
41,area,broad,-0.05,1.05,4,3000,12000,288,0.9774166666666667,0.9814198495370371,0.959247974537037,trace_pvs_sdescriptor_mismatch_nominal_sim41.nc,0.89925,0.9183423032407407,0.8259444444444445,0.07816666666666672,0.06307754629629636,0.13330353009259255
41,area,narrow,0.02,0.98,4,3000,12000,288,0.7685,0.8542149884259259,0.6571359953703704,trace_pvs_sdescriptor_mismatch_nominal_sim41.nc,0.89925,0.9183423032407407,0.8259444444444445,-0.13075000000000003,-0.06412731481481482,-0.1688084490740741
41,area,nominal,0.0,1.0,4,3000,12000,288,0.89925,0.9183423032407407,0.8259444444444445,trace_pvs_sdescriptor_mismatch_nominal_sim41.nc,0.89925,0.9183423032407407,0.8259444444444445,0.0,0.0,0.0
42,area,broad,-0.05,1.05,4,3000,12000,288,0.9740833333333333,0.9834369212962963,0.9579675925925926,trace_pvs_sdescriptor_mismatch_nominal_sim42.nc,0.8514166666666667,0.9255619212962963,0.7883185763888889,0.12266666666666659,0.05787500000000001,0.16964901620370365
42,area,narrow,0.02,0.98,4,3000,12000,288,0.6839166666666666,0.8651929976851852,0.5923767361111111,trace_pvs_sdescriptor_mismatch_nominal_sim42.nc,0.8514166666666667,0.9255619212962963,0.7883185763888889,-0.1675000000000001,-0.060368923611111125,-0.19594184027777783
42,area,nominal,0.0,1.0,4,3000,12000,288,0.8514166666666667,0.9255619212962963,0.7883185763888889,trace_pvs_sdescriptor_mismatch_nominal_sim42.nc,0.8514166666666667,0.9255619212962963,0.7883185763888889,0.0,0.0,0.0
43,area,broad,-0.05,1.05,4,3000,12000,288,0.9675,0.9825344328703703,0.9506209490740741,trace_pvs_sdescriptor_mismatch_nominal_sim43.nc,0.8266666666666667,0.9073234953703704,0.7503451967592593,0.14083333333333337,0.07521093749999996,0.20027575231481487
43,area,narrow,0.02,0.98,4,3000,12000,288,0.65025,0.8427534722222222,0.5485671296296296,trace_pvs_sdescriptor_mismatch_nominal_sim43.nc,0.8266666666666667,0.9073234953703704,0.7503451967592593,-0.17641666666666667,-0.06457002314814819,-0.20177806712962965
43,area,nominal,0.0,1.0,4,3000,12000,288,0.8266666666666667,0.9073234953703704,0.7503451967592593,trace_pvs_sdescriptor_mismatch_nominal_sim43.nc,0.8266666666666667,0.9073234953703704,0.7503451967592593,0.0,0.0,0.0
44,area,broad,-0.05,1.05,4,3000,12000,288,0.94325,0.9761365740740741,0.9207971643518519,trace_pvs_sdescriptor_mismatch_nominal_sim44.nc,0.7040833333333333,0.9075329861111111,0.6396799768518519,0.23916666666666675,0.06860358796296295,0.28111718750000003
44,area,narrow,0.02,0.98,4,3000,12000,288,0.42683333333333334,0.8478208912037037,0.36322309027777777,trace_pvs_sdescriptor_mismatch_nominal_sim44.nc,0.7040833333333333,0.9075329861111111,0.6396799768518519,-0.27724999999999994,-0.059712094907407365,-0.2764568865740741
44,area,nominal,0.0,1.0,4,3000,12000,288,0.7040833333333333,0.9075329861111111,0.6396799768518519,trace_pvs_sdescriptor_mismatch_nominal_sim44.nc,0.7040833333333333,0.9075329861111111,0.6396799768518519,0.0,0.0,0.0
45,area,broad,-0.05,1.05,4,3000,12000,288,0.9838333333333333,0.9901195023148148,0.9741195023148148,trace_pvs_sdescriptor_mismatch_nominal_sim45.nc,0.90325,0.9471886574074074,0.8557748842592593,0.08058333333333334,0.042930844907407395,0.11834461805555552
45,area,narrow,0.02,0.98,4,3000,12000,288,0.767,0.9015966435185185,0.6921898148148148,trace_pvs_sdescriptor_mismatch_nominal_sim45.nc,0.90325,0.9471886574074074,0.8557748842592593,-0.13624999999999998,-0.045592013888888894,-0.1635850694444445
45,area,nominal,0.0,1.0,4,3000,12000,288,0.90325,0.9471886574074074,0.8557748842592593,trace_pvs_sdescriptor_mismatch_nominal_sim45.nc,0.90325,0.9471886574074074,0.8557748842592593,0.0,0.0,0.0
46,area,broad,-0.05,1.05,4,3000,12000,288,0.99175,0.9898744212962963,0.9816987847222223,trace_pvs_sdescriptor_mismatch_nominal_sim46.nc,0.9506666666666667,0.9229429976851852,0.8774539930555556,0.04108333333333336,0.06693142361111115,0.10424479166666667
46,area,narrow,0.02,0.98,4,3000,12000,288,0.855,0.8497569444444445,0.7271921296296296,trace_pvs_sdescriptor_mismatch_nominal_sim46.nc,0.9506666666666667,0.9229429976851852,0.8774539930555556,-0.09566666666666668,-0.07318605324074068,-0.15026186342592596
46,area,nominal,0.0,1.0,4,3000,12000,288,0.9506666666666667,0.9229429976851852,0.8774539930555556,trace_pvs_sdescriptor_mismatch_nominal_sim46.nc,0.9506666666666667,0.9229429976851852,0.8774539930555556,0.0,0.0,0.0
47,area,broad,-0.05,1.05,4,3000,12000,288,0.9904166666666666,0.9897907986111111,0.9802997685185185,trace_pvs_sdescriptor_mismatch_nominal_sim47.nc,0.9265833333333333,0.9307190393518519,0.8625407986111111,0.0638333333333333,0.05907175925925923,0.11775896990740742
47,area,narrow,0.02,0.98,4,3000,12000,288,0.7823333333333333,0.8666840277777778,0.6789525462962963,trace_pvs_sdescriptor_mismatch_nominal_sim47.nc,0.9265833333333333,0.9307190393518519,0.8625407986111111,-0.14425,-0.0640350115740741,-0.1835882523148148
47,area,nominal,0.0,1.0,4,3000,12000,288,0.9265833333333333,0.9307190393518519,0.8625407986111111,trace_pvs_sdescriptor_mismatch_nominal_sim47.nc,0.9265833333333333,0.9307190393518519,0.8625407986111111,0.0,0.0,0.0
48,area,broad,-0.05,1.05,4,3000,12000,288,0.97525,0.9771374421296296,0.9529646990740741,trace_pvs_sdescriptor_mismatch_nominal_sim48.nc,0.8729166666666667,0.9092201967592592,0.7941102430555556,0.10233333333333328,0.06791724537037036,0.15885445601851855
48,area,narrow,0.02,0.98,4,3000,12000,288,0.6945833333333333,0.8492528935185185,0.5911984953703704,trace_pvs_sdescriptor_mismatch_nominal_sim48.nc,0.8729166666666667,0.9092201967592592,0.7941102430555556,-0.17833333333333334,-0.05996730324074073,-0.20291174768518516
48,area,nominal,0.0,1.0,4,3000,12000,288,0.8729166666666667,0.9092201967592592,0.7941102430555556,trace_pvs_sdescriptor_mismatch_nominal_sim48.nc,0.8729166666666667,0.9092201967592592,0.7941102430555556,0.0,0.0,0.0
49,area,broad,-0.05,1.05,4,3000,12000,288,0.9479166666666666,0.9859487847222222,0.9346429398148148,trace_pvs_sdescriptor_mismatch_nominal_sim49.nc,0.6816666666666666,0.938779224537037,0.6405865162037037,0.26625,0.047169560185185255,0.2940564236111112
49,area,narrow,0.02,0.98,4,3000,12000,288,0.4125,0.8949916087962962,0.37023061342592595,trace_pvs_sdescriptor_mismatch_nominal_sim49.nc,0.6816666666666666,0.938779224537037,0.6405865162037037,-0.26916666666666667,-0.04378761574074075,-0.2703559027777777
49,area,nominal,0.0,1.0,4,3000,12000,288,0.6816666666666666,0.938779224537037,0.6405865162037037,trace_pvs_sdescriptor_mismatch_nominal_sim49.nc,0.6816666666666666,0.938779224537037,0.6405865162037037,0.0,0.0,0.0
50,area,broad,-0.05,1.05,4,3000,12000,288,0.9894166666666667,0.990128761574074,0.9796498842592593,trace_pvs_sdescriptor_mismatch_nominal_sim50.nc,0.9419166666666666,0.9404467592592592,0.8859059606481482,0.0475000000000001,0.04968200231481479,0.09374392361111106
50,area,narrow,0.02,0.98,4,3000,12000,288,0.85075,0.8857161458333334,0.7540506365740741,trace_pvs_sdescriptor_mismatch_nominal_sim50.nc,0.9419166666666666,0.9404467592592592,0.8859059606481482,-0.09116666666666662,-0.05473061342592589,-0.13185532407407408
50,area,nominal,0.0,1.0,4,3000,12000,288,0.9419166666666666,0.9404467592592592,0.8859059606481482,trace_pvs_sdescriptor_mismatch_nominal_sim50.nc,0.9419166666666666,0.9404467592592592,0.8859059606481482,0.0,0.0,0.0
51,area,broad,-0.05,1.05,4,3000,12000,288,0.9581666666666667,0.9567679398148148,0.9168252314814814,trace_pvs_sdescriptor_mismatch_nominal_sim51.nc,0.6560833333333334,0.819328125,0.5387369791666666,0.30208333333333337,0.13743981481481482,0.3780882523148148
51,area,narrow,0.02,0.98,4,3000,12000,288,0.2828333333333333,0.7329065393518519,0.20827777777777778,trace_pvs_sdescriptor_mismatch_nominal_sim51.nc,0.6560833333333334,0.819328125,0.5387369791666666,-0.37325,-0.08642158564814806,-0.33045920138888885
51,area,nominal,0.0,1.0,4,3000,12000,288,0.6560833333333334,0.819328125,0.5387369791666666,trace_pvs_sdescriptor_mismatch_nominal_sim51.nc,0.6560833333333334,0.819328125,0.5387369791666666,0.0,0.0,0.0
52,area,broad,-0.05,1.05,4,3000,12000,288,0.9619166666666666,0.969386863425926,0.9324759837962963,trace_pvs_sdescriptor_mismatch_nominal_sim52.nc,0.7716666666666666,0.8546646412037037,0.659798900462963,0.19025000000000003,0.11472222222222228,0.2726770833333333
52,area,narrow,0.02,0.98,4,3000,12000,288,0.46658333333333335,0.7678041087962963,0.3591623263888889,trace_pvs_sdescriptor_mismatch_nominal_sim52.nc,0.7716666666666666,0.8546646412037037,0.659798900462963,-0.30508333333333326,-0.08686053240740732,-0.30063657407407407
52,area,nominal,0.0,1.0,4,3000,12000,288,0.7716666666666666,0.8546646412037037,0.659798900462963,trace_pvs_sdescriptor_mismatch_nominal_sim52.nc,0.7716666666666666,0.8546646412037037,0.659798900462963,0.0,0.0,0.0
53,area,broad,-0.05,1.05,4,3000,12000,288,0.98925,0.9935963541666667,0.9829137731481481,trace_pvs_sdescriptor_mismatch_nominal_sim53.nc,0.95275,0.953535011574074,0.9085387731481481,0.03649999999999998,0.04006134259259264,0.07437499999999997
53,area,narrow,0.02,0.98,4,3000,12000,288,0.8986666666666666,0.9023735532407408,0.8110888310185185,trace_pvs_sdescriptor_mismatch_nominal_sim53.nc,0.95275,0.953535011574074,0.9085387731481481,-0.05408333333333337,-0.0511614583333333,-0.09744994212962965
53,area,nominal,0.0,1.0,4,3000,12000,288,0.95275,0.953535011574074,0.9085387731481481,trace_pvs_sdescriptor_mismatch_nominal_sim53.nc,0.95275,0.953535011574074,0.9085387731481481,0.0,0.0,0.0
54,area,broad,-0.05,1.05,4,3000,12000,288,0.9715833333333334,0.9847028356481482,0.9567346643518518,trace_pvs_sdescriptor_mismatch_nominal_sim54.nc,0.8670833333333333,0.9233836805555555,0.8009273726851852,0.10450000000000004,0.06131915509259267,0.15580729166666663
54,area,narrow,0.02,0.98,4,3000,12000,288,0.7219166666666667,0.8659675925925926,0.6258428819444445,trace_pvs_sdescriptor_mismatch_nominal_sim54.nc,0.8670833333333333,0.9233836805555555,0.8009273726851852,-0.14516666666666667,-0.057416087962962936,-0.17508449074074073
54,area,nominal,0.0,1.0,4,3000,12000,288,0.8670833333333333,0.9233836805555555,0.8009273726851852,trace_pvs_sdescriptor_mismatch_nominal_sim54.nc,0.8670833333333333,0.9233836805555555,0.8009273726851852,0.0,0.0,0.0
55,area,broad,-0.05,1.05,4,3000,12000,288,0.9255833333333333,0.9333831018518518,0.8639910300925926,trace_pvs_sdescriptor_mismatch_nominal_sim55.nc,0.6266666666666667,0.7979152199074074,0.5003949652777778,0.2989166666666666,0.13546788194444437,0.36359606481481477
55,area,narrow,0.02,0.98,4,3000,12000,288,0.3938333333333333,0.7219537037037037,0.28477575231481483,trace_pvs_sdescriptor_mismatch_nominal_sim55.nc,0.6266666666666667,0.7979152199074074,0.5003949652777778,-0.2328333333333334,-0.07596151620370373,-0.215619212962963
55,area,nominal,0.0,1.0,4,3000,12000,288,0.6266666666666667,0.7979152199074074,0.5003949652777778,trace_pvs_sdescriptor_mismatch_nominal_sim55.nc,0.6266666666666667,0.7979152199074074,0.5003949652777778,0.0,0.0,0.0
56,area,broad,-0.05,1.05,4,3000,12000,288,0.9798333333333333,0.9863113425925926,0.9664247685185186,trace_pvs_sdescriptor_mismatch_nominal_sim56.nc,0.8846666666666667,0.9121391782407408,0.8071614583333333,0.09516666666666662,0.07417216435185181,0.15926331018518525
56,area,narrow,0.02,0.98,4,3000,12000,288,0.7079166666666666,0.8367974537037037,0.5933321759259259,trace_pvs_sdescriptor_mismatch_nominal_sim56.nc,0.8846666666666667,0.9121391782407408,0.8071614583333333,-0.17675000000000007,-0.07534172453703702,-0.2138292824074074
56,area,nominal,0.0,1.0,4,3000,12000,288,0.8846666666666667,0.9121391782407408,0.8071614583333333,trace_pvs_sdescriptor_mismatch_nominal_sim56.nc,0.8846666666666667,0.9121391782407408,0.8071614583333333,0.0,0.0,0.0
57,area,broad,-0.05,1.05,4,3000,12000,288,0.9623333333333334,0.9749360532407407,0.9382346643518519,trace_pvs_sdescriptor_mismatch_nominal_sim57.nc,0.7924166666666667,0.8801137152777778,0.6977502893518519,0.16991666666666672,0.09482233796296291,0.24048437499999997
57,area,narrow,0.02,0.98,4,3000,12000,288,0.591,0.8089971064814815,0.4787355324074074,trace_pvs_sdescriptor_mismatch_nominal_sim57.nc,0.7924166666666667,0.8801137152777778,0.6977502893518519,-0.2014166666666667,-0.07111660879629633,-0.2190147569444445
57,area,nominal,0.0,1.0,4,3000,12000,288,0.7924166666666667,0.8801137152777778,0.6977502893518519,trace_pvs_sdescriptor_mismatch_nominal_sim57.nc,0.7924166666666667,0.8801137152777778,0.6977502893518519,0.0,0.0,0.0
58,area,broad,-0.05,1.05,4,3000,12000,288,0.96925,0.9888220486111111,0.9584360532407408,trace_pvs_sdescriptor_mismatch_nominal_sim58.nc,0.8586666666666667,0.9490538194444444,0.8151059027777777,0.11058333333333326,0.03976822916666667,0.14333015046296305
58,area,narrow,0.02,0.98,4,3000,12000,288,0.7054166666666667,0.908099537037037,0.6410902777777778,trace_pvs_sdescriptor_mismatch_nominal_sim58.nc,0.8586666666666667,0.9490538194444444,0.8151059027777777,-0.15325,-0.040954282407407394,-0.1740156249999999
58,area,nominal,0.0,1.0,4,3000,12000,288,0.8586666666666667,0.9490538194444444,0.8151059027777777,trace_pvs_sdescriptor_mismatch_nominal_sim58.nc,0.8586666666666667,0.9490538194444444,0.8151059027777777,0.0,0.0,0.0
59,area,broad,-0.05,1.05,4,3000,12000,288,0.984,0.9853862847222222,0.9696261574074074,trace_pvs_sdescriptor_mismatch_nominal_sim59.nc,0.9074166666666666,0.912630787037037,0.8284048032407407,0.07658333333333334,0.07275549768518519,0.1412213541666667
59,area,narrow,0.02,0.98,4,3000,12000,288,0.7479166666666667,0.8451574074074074,0.6334155092592593,trace_pvs_sdescriptor_mismatch_nominal_sim59.nc,0.9074166666666666,0.912630787037037,0.8284048032407407,-0.15949999999999998,-0.06747337962962963,-0.19498929398148146
59,area,nominal,0.0,1.0,4,3000,12000,288,0.9074166666666666,0.912630787037037,0.8284048032407407,trace_pvs_sdescriptor_mismatch_nominal_sim59.nc,0.9074166666666666,0.912630787037037,0.8284048032407407,0.0,0.0,0.0
60,area,broad,-0.05,1.05,4,3000,12000,288,0.9615833333333333,0.960494212962963,0.9236371527777778,trace_pvs_sdescriptor_mismatch_nominal_sim60.nc,0.7220833333333333,0.8323408564814815,0.6016712962962963,0.23950000000000005,0.12815335648148152,0.32196585648148146
60,area,narrow,0.02,0.98,4,3000,12000,288,0.42475,0.747478587962963,0.3183093171296296,trace_pvs_sdescriptor_mismatch_nominal_sim60.nc,0.7220833333333333,0.8323408564814815,0.6016712962962963,-0.2973333333333333,-0.08486226851851852,-0.2833619791666667
60,area,nominal,0.0,1.0,4,3000,12000,288,0.7220833333333333,0.8323408564814815,0.6016712962962963,trace_pvs_sdescriptor_mismatch_nominal_sim60.nc,0.7220833333333333,0.8323408564814815,0.6016712962962963,0.0,0.0,0.0
61,area,broad,-0.05,1.05,4,3000,12000,288,0.93925,0.9516189236111111,0.8938368055555556,trace_pvs_sdescriptor_mismatch_nominal_sim61.nc,0.5980833333333333,0.8111469907407407,0.485609375,0.34116666666666673,0.1404719328703704,0.40822743055555555
61,area,narrow,0.02,0.98,4,3000,12000,288,0.33108333333333334,0.7316206597222222,0.2425732060185185,trace_pvs_sdescriptor_mismatch_nominal_sim61.nc,0.5980833333333333,0.8111469907407407,0.485609375,-0.26699999999999996,-0.07952633101851847,-0.2430361689814815
61,area,nominal,0.0,1.0,4,3000,12000,288,0.5980833333333333,0.8111469907407407,0.485609375,trace_pvs_sdescriptor_mismatch_nominal_sim61.nc,0.5980833333333333,0.8111469907407407,0.485609375,0.0,0.0,0.0
62,area,broad,-0.05,1.05,4,3000,12000,288,0.9378333333333333,0.9857945601851852,0.9245448495370371,trace_pvs_sdescriptor_mismatch_nominal_sim62.nc,0.6531666666666667,0.9425766782407408,0.6164204282407407,0.2846666666666666,0.043217881944444425,0.30812442129629636
62,area,narrow,0.02,0.98,4,3000,12000,288,0.36141666666666666,0.8985636574074074,0.3258405671296296,trace_pvs_sdescriptor_mismatch_nominal_sim62.nc,0.6531666666666667,0.9425766782407408,0.6164204282407407,-0.29175,-0.04401302083333336,-0.2905798611111111
62,area,nominal,0.0,1.0,4,3000,12000,288,0.6531666666666667,0.9425766782407408,0.6164204282407407,trace_pvs_sdescriptor_mismatch_nominal_sim62.nc,0.6531666666666667,0.9425766782407408,0.6164204282407407,0.0,0.0,0.0
63,area,broad,-0.05,1.05,4,3000,12000,288,0.9675,0.9793483796296296,0.9475607638888889,trace_pvs_sdescriptor_mismatch_nominal_sim63.nc,0.8143333333333334,0.9266684027777777,0.7549583333333333,0.15316666666666667,0.052679976851851884,0.1926024305555556
63,area,narrow,0.02,0.98,4,3000,12000,288,0.5874166666666667,0.8752381365740741,0.5150063657407408,trace_pvs_sdescriptor_mismatch_nominal_sim63.nc,0.8143333333333334,0.9266684027777777,0.7549583333333333,-0.22691666666666666,-0.05143026620370361,-0.23995196759259252
63,area,nominal,0.0,1.0,4,3000,12000,288,0.8143333333333334,0.9266684027777777,0.7549583333333333,trace_pvs_sdescriptor_mismatch_nominal_sim63.nc,0.8143333333333334,0.9266684027777777,0.7549583333333333,0.0,0.0,0.0
64,area,broad,-0.05,1.05,4,3000,12000,288,0.9616666666666667,0.9824328703703704,0.9447980324074075,trace_pvs_sdescriptor_mismatch_nominal_sim64.nc,0.7575,0.9442751736111111,0.7157453703703703,0.20416666666666672,0.038157696759259285,0.2290526620370371
64,area,narrow,0.02,0.98,4,3000,12000,288,0.48591666666666666,0.9076820023148148,0.4418955439814815,trace_pvs_sdescriptor_mismatch_nominal_sim64.nc,0.7575,0.9442751736111111,0.7157453703703703,-0.2715833333333333,-0.036593171296296356,-0.27384982638888883
64,area,nominal,0.0,1.0,4,3000,12000,288,0.7575,0.9442751736111111,0.7157453703703703,trace_pvs_sdescriptor_mismatch_nominal_sim64.nc,0.7575,0.9442751736111111,0.7157453703703703,0.0,0.0,0.0
65,area,broad,-0.05,1.05,4,3000,12000,288,0.9355833333333333,0.9630659722222222,0.9010489004629629,trace_pvs_sdescriptor_mismatch_nominal_sim65.nc,0.7209166666666667,0.8517670717592593,0.6143654513888889,0.21466666666666667,0.11129890046296298,0.28668344907407406
65,area,narrow,0.02,0.98,4,3000,12000,288,0.5035833333333334,0.7793862847222223,0.39303153935185187,trace_pvs_sdescriptor_mismatch_nominal_sim65.nc,0.7209166666666667,0.8517670717592593,0.6143654513888889,-0.21733333333333327,-0.07238078703703699,-0.221333912037037
65,area,nominal,0.0,1.0,4,3000,12000,288,0.7209166666666667,0.8517670717592593,0.6143654513888889,trace_pvs_sdescriptor_mismatch_nominal_sim65.nc,0.7209166666666667,0.8517670717592593,0.6143654513888889,0.0,0.0,0.0
66,area,broad,-0.05,1.05,4,3000,12000,288,0.9780833333333333,0.9820876736111112,0.9605729166666667,trace_pvs_sdescriptor_mismatch_nominal_sim66.nc,0.8563333333333333,0.9022242476851852,0.7727630208333334,0.12175000000000002,0.07986342592592599,0.1878098958333333
66,area,narrow,0.02,0.98,4,3000,12000,288,0.6085,0.8212392939814814,0.5008697916666667,trace_pvs_sdescriptor_mismatch_nominal_sim66.nc,0.8563333333333333,0.9022242476851852,0.7727630208333334,-0.24783333333333324,-0.08098495370370373,-0.2718932291666667
66,area,nominal,0.0,1.0,4,3000,12000,288,0.8563333333333333,0.9022242476851852,0.7727630208333334,trace_pvs_sdescriptor_mismatch_nominal_sim66.nc,0.8563333333333333,0.9022242476851852,0.7727630208333334,0.0,0.0,0.0
67,area,broad,-0.05,1.05,4,3000,12000,288,0.9743333333333334,0.9818900462962963,0.9566869212962963,trace_pvs_sdescriptor_mismatch_nominal_sim67.nc,0.8606666666666667,0.9058978587962963,0.7798969907407407,0.1136666666666667,0.07599218750000003,0.17678993055555559
67,area,narrow,0.02,0.98,4,3000,12000,288,0.691,0.8353686342592592,0.5777789351851852,trace_pvs_sdescriptor_mismatch_nominal_sim67.nc,0.8606666666666667,0.9058978587962963,0.7798969907407407,-0.16966666666666674,-0.07052922453703703,-0.2021180555555555
67,area,nominal,0.0,1.0,4,3000,12000,288,0.8606666666666667,0.9058978587962963,0.7798969907407407,trace_pvs_sdescriptor_mismatch_nominal_sim67.nc,0.8606666666666667,0.9058978587962963,0.7798969907407407,0.0,0.0,0.0
68,area,broad,-0.05,1.05,4,3000,12000,288,0.9806666666666667,0.9857233796296296,0.9666770833333334,trace_pvs_sdescriptor_mismatch_nominal_sim68.nc,0.8715833333333334,0.9107844328703704,0.7939895833333334,0.10908333333333331,0.07493894675925927,0.1726875
68,area,narrow,0.02,0.98,4,3000,12000,288,0.682,0.8344548611111111,0.5697146990740741,trace_pvs_sdescriptor_mismatch_nominal_sim68.nc,0.8715833333333334,0.9107844328703704,0.7939895833333334,-0.18958333333333333,-0.07632957175925925,-0.22427488425925923
68,area,nominal,0.0,1.0,4,3000,12000,288,0.8715833333333334,0.9107844328703704,0.7939895833333334,trace_pvs_sdescriptor_mismatch_nominal_sim68.nc,0.8715833333333334,0.9107844328703704,0.7939895833333334,0.0,0.0,0.0
69,area,broad,-0.05,1.05,4,3000,12000,288,0.9538333333333333,0.9733602430555556,0.9284505208333333,trace_pvs_sdescriptor_mismatch_nominal_sim69.nc,0.7515,0.8652763310185185,0.6506921296296296,0.20233333333333337,0.10808391203703704,0.2777583912037037
69,area,narrow,0.02,0.98,4,3000,12000,288,0.488,0.7871174768518518,0.38484375,trace_pvs_sdescriptor_mismatch_nominal_sim69.nc,0.7515,0.8652763310185185,0.6506921296296296,-0.26349999999999996,-0.07815885416666668,-0.26584837962962965
69,area,nominal,0.0,1.0,4,3000,12000,288,0.7515,0.8652763310185185,0.6506921296296296,trace_pvs_sdescriptor_mismatch_nominal_sim69.nc,0.7515,0.8652763310185185,0.6506921296296296,0.0,0.0,0.0
70,area,broad,-0.05,1.05,4,3000,12000,288,0.9655,0.9733723958333333,0.9398003472222223,trace_pvs_sdescriptor_mismatch_nominal_sim70.nc,0.803,0.8824615162037037,0.7091478587962963,0.16249999999999998,0.09091087962962963,0.230652488425926
70,area,narrow,0.02,0.98,4,3000,12000,288,0.5698333333333333,0.8056160300925926,0.4601223958333333,trace_pvs_sdescriptor_mismatch_nominal_sim70.nc,0.803,0.8824615162037037,0.7091478587962963,-0.23316666666666674,-0.07684548611111108,-0.24902546296296296
70,area,nominal,0.0,1.0,4,3000,12000,288,0.803,0.8824615162037037,0.7091478587962963,trace_pvs_sdescriptor_mismatch_nominal_sim70.nc,0.803,0.8824615162037037,0.7091478587962963,0.0,0.0,0.0
71,area,broad,-0.05,1.05,4,3000,12000,288,0.96825,0.9778220486111111,0.9467769097222222,trace_pvs_sdescriptor_mismatch_nominal_sim71.nc,0.8285833333333333,0.9100462962962963,0.7544554398148148,0.13966666666666672,0.06777575231481481,0.1923214699074074
71,area,narrow,0.02,0.98,4,3000,12000,288,0.60825,0.8453975694444444,0.5153012152777777,trace_pvs_sdescriptor_mismatch_nominal_sim71.nc,0.8285833333333333,0.9100462962962963,0.7544554398148148,-0.22033333333333338,-0.06464872685185186,-0.23915422453703705
71,area,nominal,0.0,1.0,4,3000,12000,288,0.8285833333333333,0.9100462962962963,0.7544554398148148,trace_pvs_sdescriptor_mismatch_nominal_sim71.nc,0.8285833333333333,0.9100462962962963,0.7544554398148148,0.0,0.0,0.0
72,area,broad,-0.05,1.05,4,3000,12000,288,0.9639166666666666,0.9838920717592593,0.9484155092592592,trace_pvs_sdescriptor_mismatch_nominal_sim72.nc,0.75075,0.9347647569444445,0.7024664351851851,0.21316666666666662,0.049127314814814804,0.24594907407407407
72,area,narrow,0.02,0.98,4,3000,12000,288,0.40925,0.8897080439814815,0.3653388310185185,trace_pvs_sdescriptor_mismatch_nominal_sim72.nc,0.75075,0.9347647569444445,0.7024664351851851,-0.3415,-0.045056712962962986,-0.33712760416666665
72,area,nominal,0.0,1.0,4,3000,12000,288,0.75075,0.9347647569444445,0.7024664351851851,trace_pvs_sdescriptor_mismatch_nominal_sim72.nc,0.75075,0.9347647569444445,0.7024664351851851,0.0,0.0,0.0
73,area,broad,-0.05,1.05,4,3000,12000,288,0.9754166666666667,0.9820972222222222,0.9579655671296297,trace_pvs_sdescriptor_mismatch_nominal_sim73.nc,0.8450833333333333,0.8928654513888888,0.7548642939814815,0.1303333333333334,0.08923177083333333,0.2031012731481482
73,area,narrow,0.02,0.98,4,3000,12000,288,0.6165833333333334,0.8141510416666666,0.5029334490740741,trace_pvs_sdescriptor_mismatch_nominal_sim73.nc,0.8450833333333333,0.8928654513888888,0.7548642939814815,-0.22849999999999993,-0.07871440972222221,-0.25193084490740736
73,area,nominal,0.0,1.0,4,3000,12000,288,0.8450833333333333,0.8928654513888888,0.7548642939814815,trace_pvs_sdescriptor_mismatch_nominal_sim73.nc,0.8450833333333333,0.8928654513888888,0.7548642939814815,0.0,0.0,0.0
74,area,broad,-0.05,1.05,4,3000,12000,288,0.9484166666666667,0.965087962962963,0.9153188657407407,trace_pvs_sdescriptor_mismatch_nominal_sim74.nc,0.7423333333333333,0.8571576967592592,0.6366822916666667,0.2060833333333334,0.10793026620370372,0.27863657407407405
74,area,narrow,0.02,0.98,4,3000,12000,288,0.49883333333333335,0.7793715277777777,0.38958767361111113,trace_pvs_sdescriptor_mismatch_nominal_sim74.nc,0.7423333333333333,0.8571576967592592,0.6366822916666667,-0.24349999999999994,-0.0777861689814815,-0.24709461805555555
74,area,nominal,0.0,1.0,4,3000,12000,288,0.7423333333333333,0.8571576967592592,0.6366822916666667,trace_pvs_sdescriptor_mismatch_nominal_sim74.nc,0.7423333333333333,0.8571576967592592,0.6366822916666667,0.0,0.0,0.0
75,area,broad,-0.05,1.05,4,3000,12000,288,0.9734166666666667,0.9808718171296297,0.9548058449074074,trace_pvs_sdescriptor_mismatch_nominal_sim75.nc,0.8560833333333333,0.8949592013888888,0.7664658564814815,0.1173333333333334,0.08591261574074083,0.18833998842592592
75,area,narrow,0.02,0.98,4,3000,12000,288,0.6438333333333334,0.8174658564814815,0.5273075810185185,trace_pvs_sdescriptor_mismatch_nominal_sim75.nc,0.8560833333333333,0.8949592013888888,0.7664658564814815,-0.21224999999999994,-0.07749334490740734,-0.23915827546296298
75,area,nominal,0.0,1.0,4,3000,12000,288,0.8560833333333333,0.8949592013888888,0.7664658564814815,trace_pvs_sdescriptor_mismatch_nominal_sim75.nc,0.8560833333333333,0.8949592013888888,0.7664658564814815,0.0,0.0,0.0
76,area,broad,-0.05,1.05,4,3000,12000,288,0.92275,0.9324097222222222,0.8604632523148148,trace_pvs_sdescriptor_mismatch_nominal_sim76.nc,0.58575,0.7766096643518519,0.45533275462962963,0.33699999999999997,0.15580005787037032,0.40513049768518516
76,area,narrow,0.02,0.98,4,3000,12000,288,0.35675,0.6951984953703704,0.24843721064814814,trace_pvs_sdescriptor_mismatch_nominal_sim76.nc,0.58575,0.7766096643518519,0.45533275462962963,-0.22899999999999998,-0.08141116898148149,-0.2068955439814815
76,area,nominal,0.0,1.0,4,3000,12000,288,0.58575,0.7766096643518519,0.45533275462962963,trace_pvs_sdescriptor_mismatch_nominal_sim76.nc,0.58575,0.7766096643518519,0.45533275462962963,0.0,0.0,0.0
77,area,broad,-0.05,1.05,4,3000,12000,288,0.93275,0.9849169560185185,0.9187019675925926,trace_pvs_sdescriptor_mismatch_nominal_sim77.nc,0.6923333333333334,0.9237311921296296,0.6402103587962963,0.2404166666666666,0.061185763888888856,0.2784916087962963
77,area,narrow,0.02,0.98,4,3000,12000,288,0.4225,0.8684273726851852,0.3680159143518518,trace_pvs_sdescriptor_mismatch_nominal_sim77.nc,0.6923333333333334,0.9237311921296296,0.6402103587962963,-0.26983333333333337,-0.0553038194444444,-0.27219444444444446
77,area,nominal,0.0,1.0,4,3000,12000,288,0.6923333333333334,0.9237311921296296,0.6402103587962963,trace_pvs_sdescriptor_mismatch_nominal_sim77.nc,0.6923333333333334,0.9237311921296296,0.6402103587962963,0.0,0.0,0.0
78,area,broad,-0.05,1.05,4,3000,12000,288,0.9564166666666667,0.9831481481481481,0.9402821180555555,trace_pvs_sdescriptor_mismatch_nominal_sim78.nc,0.8165833333333333,0.9339131944444444,0.7628064236111111,0.13983333333333337,0.04923495370370368,0.17747569444444444
78,area,narrow,0.02,0.98,4,3000,12000,288,0.6705,0.8859916087962963,0.594638599537037,trace_pvs_sdescriptor_mismatch_nominal_sim78.nc,0.8165833333333333,0.9339131944444444,0.7628064236111111,-0.14608333333333334,-0.04792158564814808,-0.16816782407407405
78,area,nominal,0.0,1.0,4,3000,12000,288,0.8165833333333333,0.9339131944444444,0.7628064236111111,trace_pvs_sdescriptor_mismatch_nominal_sim78.nc,0.8165833333333333,0.9339131944444444,0.7628064236111111,0.0,0.0,0.0
79,area,broad,-0.05,1.05,4,3000,12000,288,0.9670833333333333,0.9760315393518518,0.9439056712962963,trace_pvs_sdescriptor_mismatch_nominal_sim79.nc,0.7866666666666666,0.8812760416666666,0.6935529513888888,0.18041666666666667,0.09475549768518521,0.2503527199074075
79,area,narrow,0.02,0.98,4,3000,12000,288,0.5794166666666667,0.8103098958333333,0.4700740740740741,trace_pvs_sdescriptor_mismatch_nominal_sim79.nc,0.7866666666666666,0.8812760416666666,0.6935529513888888,-0.20724999999999993,-0.07096614583333327,-0.22347887731481475
79,area,nominal,0.0,1.0,4,3000,12000,288,0.7866666666666666,0.8812760416666666,0.6935529513888888,trace_pvs_sdescriptor_mismatch_nominal_sim79.nc,0.7866666666666666,0.8812760416666666,0.6935529513888888,0.0,0.0,0.0
80,area,broad,-0.05,1.05,4,3000,12000,288,0.97575,0.9770069444444445,0.953330150462963,trace_pvs_sdescriptor_mismatch_nominal_sim80.nc,0.8506666666666667,0.8785324074074075,0.7476553819444445,0.12508333333333332,0.09847453703703701,0.2056747685185185
80,area,narrow,0.02,0.98,4,3000,12000,288,0.6415,0.7958220486111112,0.5112256944444444,trace_pvs_sdescriptor_mismatch_nominal_sim80.nc,0.8506666666666667,0.8785324074074075,0.7476553819444445,-0.20916666666666672,-0.08271035879629629,-0.23642968750000004
80,area,nominal,0.0,1.0,4,3000,12000,288,0.8506666666666667,0.8785324074074075,0.7476553819444445,trace_pvs_sdescriptor_mismatch_nominal_sim80.nc,0.8506666666666667,0.8785324074074075,0.7476553819444445,0.0,0.0,0.0
81,area,broad,-0.05,1.05,4,3000,12000,288,0.9669166666666666,0.9692112268518519,0.9372034143518518,trace_pvs_sdescriptor_mismatch_nominal_sim81.nc,0.7985,0.8731105324074074,0.6977019675925926,0.16841666666666666,0.09610069444444447,0.23950144675925922
81,area,narrow,0.02,0.98,4,3000,12000,288,0.5170833333333333,0.7923929398148148,0.4109620949074074,trace_pvs_sdescriptor_mismatch_nominal_sim81.nc,0.7985,0.8731105324074074,0.6977019675925926,-0.28141666666666665,-0.08071759259259259,-0.2867398726851852
81,area,nominal,0.0,1.0,4,3000,12000,288,0.7985,0.8731105324074074,0.6977019675925926,trace_pvs_sdescriptor_mismatch_nominal_sim81.nc,0.7985,0.8731105324074074,0.6977019675925926,0.0,0.0,0.0
82,area,broad,-0.05,1.05,4,3000,12000,288,0.94875,0.9568952546296297,0.9078776041666666,trace_pvs_sdescriptor_mismatch_nominal_sim82.nc,0.6945833333333333,0.8366394675925926,0.5814973958333334,0.25416666666666665,0.1202557870370371,0.32638020833333325
82,area,narrow,0.02,0.98,4,3000,12000,288,0.44275,0.7630324074074074,0.3383394097222222,trace_pvs_sdescriptor_mismatch_nominal_sim82.nc,0.6945833333333333,0.8366394675925926,0.5814973958333334,-0.25183333333333335,-0.07360706018518515,-0.24315798611111117
82,area,nominal,0.0,1.0,4,3000,12000,288,0.6945833333333333,0.8366394675925926,0.5814973958333334,trace_pvs_sdescriptor_mismatch_nominal_sim82.nc,0.6945833333333333,0.8366394675925926,0.5814973958333334,0.0,0.0,0.0
83,area,broad,-0.05,1.05,4,3000,12000,288,0.9345833333333333,0.9688098958333333,0.9054945023148148,trace_pvs_sdescriptor_mismatch_nominal_sim83.nc,0.71475,0.8732346643518518,0.6245069444444444,0.21983333333333333,0.0955752314814815,0.28098755787037033
83,area,narrow,0.02,0.98,4,3000,12000,288,0.5025833333333334,0.8108810763888888,0.408326099537037,trace_pvs_sdescriptor_mismatch_nominal_sim83.nc,0.71475,0.8732346643518518,0.6245069444444444,-0.21216666666666661,-0.062353587962962975,-0.2161808449074074
83,area,nominal,0.0,1.0,4,3000,12000,288,0.71475,0.8732346643518518,0.6245069444444444,trace_pvs_sdescriptor_mismatch_nominal_sim83.nc,0.71475,0.8732346643518518,0.6245069444444444,0.0,0.0,0.0
84,area,broad,-0.05,1.05,4,3000,12000,288,0.976,0.9799563078703704,0.956474537037037,trace_pvs_sdescriptor_mismatch_nominal_sim84.nc,0.81025,0.8670052083333334,0.703103587962963,0.16574999999999995,0.11295109953703697,0.253370949074074
84,area,narrow,0.02,0.98,4,3000,12000,288,0.4280833333333333,0.7735677083333333,0.33294126157407405,trace_pvs_sdescriptor_mismatch_nominal_sim84.nc,0.81025,0.8670052083333334,0.703103587962963,-0.3821666666666667,-0.09343750000000006,-0.37016232638888896
84,area,nominal,0.0,1.0,4,3000,12000,288,0.81025,0.8670052083333334,0.703103587962963,trace_pvs_sdescriptor_mismatch_nominal_sim84.nc,0.81025,0.8670052083333334,0.703103587962963,0.0,0.0,0.0
85,area,broad,-0.05,1.05,4,3000,12000,288,0.9683333333333334,0.991595775462963,0.9602120949074074,trace_pvs_sdescriptor_mismatch_nominal_sim85.nc,0.86125,0.9374875578703704,0.8075755208333333,0.10708333333333342,0.054108217592592545,0.15263657407407416
85,area,narrow,0.02,0.98,4,3000,12000,288,0.7376666666666667,0.8836440972222223,0.6523023726851852,trace_pvs_sdescriptor_mismatch_nominal_sim85.nc,0.86125,0.9374875578703704,0.8075755208333333,-0.12358333333333327,-0.053843460648148156,-0.15527314814814808
85,area,nominal,0.0,1.0,4,3000,12000,288,0.86125,0.9374875578703704,0.8075755208333333,trace_pvs_sdescriptor_mismatch_nominal_sim85.nc,0.86125,0.9374875578703704,0.8075755208333333,0.0,0.0,0.0
86,area,broad,-0.05,1.05,4,3000,12000,288,0.9661666666666666,0.9891134259259259,0.9556686921296297,trace_pvs_sdescriptor_mismatch_nominal_sim86.nc,0.8333333333333334,0.927166087962963,0.7729603587962963,0.13283333333333325,0.06194733796296292,0.18270833333333336
86,area,narrow,0.02,0.98,4,3000,12000,288,0.6411666666666667,0.8624641203703703,0.5538602430555556,trace_pvs_sdescriptor_mismatch_nominal_sim86.nc,0.8333333333333334,0.927166087962963,0.7729603587962963,-0.1921666666666667,-0.06470196759259261,-0.21910011574074073
86,area,nominal,0.0,1.0,4,3000,12000,288,0.8333333333333334,0.927166087962963,0.7729603587962963,trace_pvs_sdescriptor_mismatch_nominal_sim86.nc,0.8333333333333334,0.927166087962963,0.7729603587962963,0.0,0.0,0.0
87,area,broad,-0.05,1.05,4,3000,12000,288,0.9678333333333333,0.9724872685185185,0.9412256944444445,trace_pvs_sdescriptor_mismatch_nominal_sim87.nc,0.789,0.8743032407407407,0.6901273148148148,0.1788333333333333,0.0981840277777778,0.25109837962962966
87,area,narrow,0.02,0.98,4,3000,12000,288,0.5533333333333333,0.7985784143518518,0.4424652777777778,trace_pvs_sdescriptor_mismatch_nominal_sim87.nc,0.789,0.8743032407407407,0.6901273148148148,-0.2356666666666667,-0.07572482638888889,-0.24766203703703704
87,area,nominal,0.0,1.0,4,3000,12000,288,0.789,0.8743032407407407,0.6901273148148148,trace_pvs_sdescriptor_mismatch_nominal_sim87.nc,0.789,0.8743032407407407,0.6901273148148148,0.0,0.0,0.0
88,area,broad,-0.05,1.05,4,3000,12000,288,0.9730833333333333,0.9847575231481481,0.9582719907407408,trace_pvs_sdescriptor_mismatch_nominal_sim88.nc,0.8655,0.9344134837962963,0.8089473379629629,0.10758333333333325,0.05034403935185183,0.14932465277777784
88,area,narrow,0.02,0.98,4,3000,12000,288,0.7105,0.8863512731481481,0.6304401041666666,trace_pvs_sdescriptor_mismatch_nominal_sim88.nc,0.8655,0.9344134837962963,0.8089473379629629,-0.15500000000000003,-0.048062210648148196,-0.1785072337962963
88,area,nominal,0.0,1.0,4,3000,12000,288,0.8655,0.9344134837962963,0.8089473379629629,trace_pvs_sdescriptor_mismatch_nominal_sim88.nc,0.8655,0.9344134837962963,0.8089473379629629,0.0,0.0,0.0
89,area,broad,-0.05,1.05,4,3000,12000,288,0.9730833333333333,0.9744470486111111,0.9482523148148149,trace_pvs_sdescriptor_mismatch_nominal_sim89.nc,0.8299166666666666,0.880894386574074,0.7314085648148149,0.14316666666666666,0.09355266203703705,0.21684375
89,area,narrow,0.02,0.98,4,3000,12000,288,0.60425,0.7988706597222223,0.48364091435185186,trace_pvs_sdescriptor_mismatch_nominal_sim89.nc,0.8299166666666666,0.880894386574074,0.7314085648148149,-0.22566666666666668,-0.08202372685185177,-0.247767650462963
89,area,nominal,0.0,1.0,4,3000,12000,288,0.8299166666666666,0.880894386574074,0.7314085648148149,trace_pvs_sdescriptor_mismatch_nominal_sim89.nc,0.8299166666666666,0.880894386574074,0.7314085648148149,0.0,0.0,0.0
90,area,broad,-0.05,1.05,4,3000,12000,288,0.9878333333333333,0.9934233217592593,0.9813385416666667,trace_pvs_sdescriptor_mismatch_nominal_sim90.nc,0.9166666666666666,0.9582222222222222,0.8786322337962963,0.07116666666666671,0.035201099537037095,0.10270630787037038
90,area,narrow,0.02,0.98,4,3000,12000,288,0.7151666666666666,0.9168220486111112,0.6569768518518518,trace_pvs_sdescriptor_mismatch_nominal_sim90.nc,0.9166666666666666,0.9582222222222222,0.8786322337962963,-0.2015,-0.041400173611111035,-0.22165538194444445
90,area,nominal,0.0,1.0,4,3000,12000,288,0.9166666666666666,0.9582222222222222,0.8786322337962963,trace_pvs_sdescriptor_mismatch_nominal_sim90.nc,0.9166666666666666,0.9582222222222222,0.8786322337962963,0.0,0.0,0.0
91,area,broad,-0.05,1.05,4,3000,12000,288,0.9504166666666667,0.9759534143518519,0.9276388888888889,trace_pvs_sdescriptor_mismatch_nominal_sim91.nc,0.7388333333333333,0.8887563657407408,0.6571990740740741,0.21158333333333335,0.0871970486111111,0.2704398148148148
91,area,narrow,0.02,0.98,4,3000,12000,288,0.4795,0.8197838541666667,0.3942146990740741,trace_pvs_sdescriptor_mismatch_nominal_sim91.nc,0.7388333333333333,0.8887563657407408,0.6571990740740741,-0.25933333333333336,-0.06897251157407414,-0.262984375
91,area,nominal,0.0,1.0,4,3000,12000,288,0.7388333333333333,0.8887563657407408,0.6571990740740741,trace_pvs_sdescriptor_mismatch_nominal_sim91.nc,0.7388333333333333,0.8887563657407408,0.6571990740740741,0.0,0.0,0.0
92,area,broad,-0.05,1.05,4,3000,12000,288,0.91575,0.982322337962963,0.8996550925925926,trace_pvs_sdescriptor_mismatch_nominal_sim92.nc,0.5708333333333333,0.9328098958333333,0.5332404513888889,0.34491666666666665,0.049512442129629686,0.3664146412037037
92,area,narrow,0.02,0.98,4,3000,12000,288,0.29058333333333336,0.8884363425925926,0.25890972222222225,trace_pvs_sdescriptor_mismatch_nominal_sim92.nc,0.5708333333333333,0.9328098958333333,0.5332404513888889,-0.28024999999999994,-0.04437355324074066,-0.2743307291666666
92,area,nominal,0.0,1.0,4,3000,12000,288,0.5708333333333333,0.9328098958333333,0.5332404513888889,trace_pvs_sdescriptor_mismatch_nominal_sim92.nc,0.5708333333333333,0.9328098958333333,0.5332404513888889,0.0,0.0,0.0
93,area,broad,-0.05,1.05,4,3000,12000,288,0.9725,0.9810052083333334,0.9540483217592592,trace_pvs_sdescriptor_mismatch_nominal_sim93.nc,0.85225,0.9179516782407408,0.7826377314814815,0.12025000000000008,0.06305353009259262,0.17141059027777772
93,area,narrow,0.02,0.98,4,3000,12000,288,0.6781666666666667,0.8559965277777778,0.5812962962962963,trace_pvs_sdescriptor_mismatch_nominal_sim93.nc,0.85225,0.9179516782407408,0.7826377314814815,-0.17408333333333326,-0.06195515046296296,-0.2013414351851852
93,area,nominal,0.0,1.0,4,3000,12000,288,0.85225,0.9179516782407408,0.7826377314814815,trace_pvs_sdescriptor_mismatch_nominal_sim93.nc,0.85225,0.9179516782407408,0.7826377314814815,0.0,0.0,0.0
94,area,broad,-0.05,1.05,4,3000,12000,288,0.9935,0.985152199074074,0.9787633101851851,trace_pvs_sdescriptor_mismatch_nominal_sim94.nc,0.95275,0.9269730902777777,0.8832497106481482,0.040750000000000064,0.058179108796296286,0.09551359953703698
94,area,narrow,0.02,0.98,4,3000,12000,288,0.8656666666666667,0.871636574074074,0.7551490162037037,trace_pvs_sdescriptor_mismatch_nominal_sim94.nc,0.95275,0.9269730902777777,0.8832497106481482,-0.08708333333333329,-0.05533651620370372,-0.1281006944444445
94,area,nominal,0.0,1.0,4,3000,12000,288,0.95275,0.9269730902777777,0.8832497106481482,trace_pvs_sdescriptor_mismatch_nominal_sim94.nc,0.95275,0.9269730902777777,0.8832497106481482,0.0,0.0,0.0
95,area,broad,-0.05,1.05,4,3000,12000,288,0.9705833333333334,0.9539074074074074,0.925886863425926,trace_pvs_sdescriptor_mismatch_nominal_sim95.nc,0.7325833333333334,0.8353935185185185,0.6130104166666667,0.238,0.11851388888888892,0.3128764467592593
95,area,narrow,0.02,0.98,4,3000,12000,288,0.32133333333333336,0.7611215277777778,0.24594155092592593,trace_pvs_sdescriptor_mismatch_nominal_sim95.nc,0.7325833333333334,0.8353935185185185,0.6130104166666667,-0.41125,-0.07427199074074076,-0.3670688657407407
95,area,nominal,0.0,1.0,4,3000,12000,288,0.7325833333333334,0.8353935185185185,0.6130104166666667,trace_pvs_sdescriptor_mismatch_nominal_sim95.nc,0.7325833333333334,0.8353935185185185,0.6130104166666667,0.0,0.0,0.0
96,area,broad,-0.05,1.05,4,3000,12000,288,0.96,0.973759837962963,0.9348602430555556,trace_pvs_sdescriptor_mismatch_nominal_sim96.nc,0.78175,0.8771715856481481,0.6861050347222222,0.17825000000000002,0.09658825231481483,0.24875520833333342
96,area,narrow,0.02,0.98,4,3000,12000,288,0.5590833333333334,0.8039557291666667,0.4503605324074074,trace_pvs_sdescriptor_mismatch_nominal_sim96.nc,0.78175,0.8771715856481481,0.6861050347222222,-0.22266666666666657,-0.07321585648148143,-0.23574450231481475
96,area,nominal,0.0,1.0,4,3000,12000,288,0.78175,0.8771715856481481,0.6861050347222222,trace_pvs_sdescriptor_mismatch_nominal_sim96.nc,0.78175,0.8771715856481481,0.6861050347222222,0.0,0.0,0.0
97,area,broad,-0.05,1.05,4,3000,12000,288,0.9645,0.9766984953703703,0.9420471643518519,trace_pvs_sdescriptor_mismatch_nominal_sim97.nc,0.8313333333333334,0.8907204861111111,0.7408512731481481,0.13316666666666666,0.08597800925925925,0.20119589120370374
97,area,narrow,0.02,0.98,4,3000,12000,288,0.61175,0.8159262152777778,0.5002688078703704,trace_pvs_sdescriptor_mismatch_nominal_sim97.nc,0.8313333333333334,0.8907204861111111,0.7408512731481481,-0.21958333333333335,-0.07479427083333334,-0.2405824652777777
97,area,nominal,0.0,1.0,4,3000,12000,288,0.8313333333333334,0.8907204861111111,0.7408512731481481,trace_pvs_sdescriptor_mismatch_nominal_sim97.nc,0.8313333333333334,0.8907204861111111,0.7408512731481481,0.0,0.0,0.0
98,area,broad,-0.05,1.05,4,3000,12000,288,0.9013333333333333,0.9683972800925926,0.8728703703703704,trace_pvs_sdescriptor_mismatch_nominal_sim98.nc,0.5906666666666667,0.893707175925926,0.5285494791666666,0.31066666666666665,0.07469010416666666,0.3443208912037038
98,area,narrow,0.02,0.98,4,3000,12000,288,0.3463333333333333,0.8352164351851852,0.2902838541666667,trace_pvs_sdescriptor_mismatch_nominal_sim98.nc,0.5906666666666667,0.893707175925926,0.5285494791666666,-0.24433333333333335,-0.05849074074074079,-0.23826562499999993
98,area,nominal,0.0,1.0,4,3000,12000,288,0.5906666666666667,0.893707175925926,0.5285494791666666,trace_pvs_sdescriptor_mismatch_nominal_sim98.nc,0.5906666666666667,0.893707175925926,0.5285494791666666,0.0,0.0,0.0
99,area,broad,-0.05,1.05,4,3000,12000,288,0.96175,0.9650694444444444,0.9281704282407407,trace_pvs_sdescriptor_mismatch_nominal_sim99.nc,0.7493333333333333,0.8532552083333333,0.6399019097222223,0.2124166666666667,0.11181423611111108,0.2882685185185184
99,area,narrow,0.02,0.98,4,3000,12000,288,0.4553333333333333,0.7719563078703704,0.35255902777777776,trace_pvs_sdescriptor_mismatch_nominal_sim99.nc,0.7493333333333333,0.8532552083333333,0.6399019097222223,-0.294,-0.08129890046296295,-0.2873428819444445
99,area,nominal,0.0,1.0,4,3000,12000,288,0.7493333333333333,0.8532552083333333,0.6399019097222223,trace_pvs_sdescriptor_mismatch_nominal_sim99.nc,0.7493333333333333,0.8532552083333333,0.6399019097222223,0.0,0.0,0.0
100,area,broad,-0.05,1.05,4,3000,12000,288,0.99575,0.9896461226851851,0.9854357638888889,trace_pvs_sdescriptor_mismatch_nominal_sim100.nc,0.9689166666666666,0.9330992476851852,0.9041064814814814,0.026833333333333376,0.056546874999999996,0.08132928240740744
100,area,narrow,0.02,0.98,4,3000,12000,288,0.9016666666666666,0.8689334490740741,0.7838501157407407,trace_pvs_sdescriptor_mismatch_nominal_sim100.nc,0.9689166666666666,0.9330992476851852,0.9041064814814814,-0.06725000000000003,-0.06416579861111105,-0.12025636574074072
100,area,nominal,0.0,1.0,4,3000,12000,288,0.9689166666666666,0.9330992476851852,0.9041064814814814,trace_pvs_sdescriptor_mismatch_nominal_sim100.nc,0.9689166666666666,0.9330992476851852,0.9041064814814814,0.0,0.0,0.0
101,area,broad,-0.05,1.05,4,3000,12000,288,0.984,0.9898232060185185,0.9740049189814814,trace_pvs_sdescriptor_mismatch_nominal_sim101.nc,0.8979166666666667,0.9484050925925926,0.8517786458333333,0.08608333333333329,0.04141811342592583,0.12222627314814816
101,area,narrow,0.02,0.98,4,3000,12000,288,0.7423333333333333,0.9021603009259259,0.6703926504629629,trace_pvs_sdescriptor_mismatch_nominal_sim101.nc,0.8979166666666667,0.9484050925925926,0.8517786458333333,-0.1555833333333334,-0.04624479166666673,-0.18138599537037037
101,area,nominal,0.0,1.0,4,3000,12000,288,0.8979166666666667,0.9484050925925926,0.8517786458333333,trace_pvs_sdescriptor_mismatch_nominal_sim101.nc,0.8979166666666667,0.9484050925925926,0.8517786458333333,0.0,0.0,0.0
102,area,broad,-0.05,1.05,4,3000,12000,288,0.9765833333333334,0.9741064814814815,0.9513052662037037,trace_pvs_sdescriptor_mismatch_nominal_sim102.nc,0.8534166666666667,0.8844354745370371,0.7550590277777778,0.12316666666666665,0.08967100694444441,0.19624623842592592
102,area,narrow,0.02,0.98,4,3000,12000,288,0.593,0.8033521412037037,0.4776840277777778,trace_pvs_sdescriptor_mismatch_nominal_sim102.nc,0.8534166666666667,0.8844354745370371,0.7550590277777778,-0.26041666666666674,-0.0810833333333334,-0.277375
102,area,nominal,0.0,1.0,4,3000,12000,288,0.8534166666666667,0.8844354745370371,0.7550590277777778,trace_pvs_sdescriptor_mismatch_nominal_sim102.nc,0.8534166666666667,0.8844354745370371,0.7550590277777778,0.0,0.0,0.0
103,area,broad,-0.05,1.05,4,3000,12000,288,0.8811666666666667,0.969136863425926,0.8541281828703704,trace_pvs_sdescriptor_mismatch_nominal_sim103.nc,0.5075833333333334,0.8914603587962963,0.4532433449074074,0.37358333333333327,0.07767650462962972,0.400884837962963
103,area,narrow,0.02,0.98,4,3000,12000,288,0.23275,0.8351125578703704,0.19532060185185185,trace_pvs_sdescriptor_mismatch_nominal_sim103.nc,0.5075833333333334,0.8914603587962963,0.4532433449074074,-0.2748333333333334,-0.05634780092592584,-0.25792274305555557
103,area,nominal,0.0,1.0,4,3000,12000,288,0.5075833333333334,0.8914603587962963,0.4532433449074074,trace_pvs_sdescriptor_mismatch_nominal_sim103.nc,0.5075833333333334,0.8914603587962963,0.4532433449074074,0.0,0.0,0.0
104,area,broad,-0.05,1.05,4,3000,12000,288,0.9900833333333333,0.9783188657407408,0.9686310763888889,trace_pvs_sdescriptor_mismatch_nominal_sim104.nc,0.90925,0.8782112268518518,0.7988828125,0.08083333333333331,0.10010763888888896,0.16974826388888886
104,area,narrow,0.02,0.98,4,3000,12000,288,0.5893333333333334,0.7854143518518518,0.46517997685185186,trace_pvs_sdescriptor_mismatch_nominal_sim104.nc,0.90925,0.8782112268518518,0.7988828125,-0.3199166666666666,-0.092796875,-0.3337028356481482
104,area,nominal,0.0,1.0,4,3000,12000,288,0.90925,0.8782112268518518,0.7988828125,trace_pvs_sdescriptor_mismatch_nominal_sim104.nc,0.90925,0.8782112268518518,0.7988828125,0.0,0.0,0.0
105,area,broad,-0.05,1.05,4,3000,12000,288,0.9898333333333333,0.9878179976851852,0.9777711226851852,trace_pvs_sdescriptor_mismatch_nominal_sim105.nc,0.93125,0.9340925925925926,0.8699056712962963,0.05858333333333332,0.053725405092592604,0.10786545138888892
105,area,narrow,0.02,0.98,4,3000,12000,288,0.837,0.8712740162037037,0.7296799768518518,trace_pvs_sdescriptor_mismatch_nominal_sim105.nc,0.93125,0.9340925925925926,0.8699056712962963,-0.09425000000000006,-0.06281857638888888,-0.14022569444444444
105,area,nominal,0.0,1.0,4,3000,12000,288,0.93125,0.9340925925925926,0.8699056712962963,trace_pvs_sdescriptor_mismatch_nominal_sim105.nc,0.93125,0.9340925925925926,0.8699056712962963,0.0,0.0,0.0
106,area,broad,-0.05,1.05,4,3000,12000,288,0.9881666666666666,0.9746750578703703,0.9631478587962963,trace_pvs_sdescriptor_mismatch_nominal_sim106.nc,0.9105833333333333,0.8799097222222222,0.8015179398148148,0.07758333333333334,0.09476533564814815,0.1616299189814815
106,area,narrow,0.02,0.98,4,3000,12000,288,0.6535,0.8077149884259259,0.5294192708333333,trace_pvs_sdescriptor_mismatch_nominal_sim106.nc,0.9105833333333333,0.8799097222222222,0.8015179398148148,-0.25708333333333333,-0.07219473379629626,-0.2720986689814815
106,area,nominal,0.0,1.0,4,3000,12000,288,0.9105833333333333,0.8799097222222222,0.8015179398148148,trace_pvs_sdescriptor_mismatch_nominal_sim106.nc,0.9105833333333333,0.8799097222222222,0.8015179398148148,0.0,0.0,0.0
107,area,broad,-0.05,1.05,4,3000,12000,288,0.9775,0.9919612268518518,0.9696519097222223,trace_pvs_sdescriptor_mismatch_nominal_sim107.nc,0.88775,0.9534265046296296,0.8465619212962963,0.08975,0.038534722222222206,0.123089988425926
107,area,narrow,0.02,0.98,4,3000,12000,288,0.77425,0.9099415509259259,0.704943287037037,trace_pvs_sdescriptor_mismatch_nominal_sim107.nc,0.88775,0.9534265046296296,0.8465619212962963,-0.11350000000000005,-0.043484953703703755,-0.14161863425925925
107,area,nominal,0.0,1.0,4,3000,12000,288,0.88775,0.9534265046296296,0.8465619212962963,trace_pvs_sdescriptor_mismatch_nominal_sim107.nc,0.88775,0.9534265046296296,0.8465619212962963,0.0,0.0,0.0
108,area,broad,-0.05,1.05,4,3000,12000,288,0.9518333333333333,0.9763570601851852,0.9293799189814815,trace_pvs_sdescriptor_mismatch_nominal_sim108.nc,0.7355,0.8807337962962963,0.6485726273148148,0.21633333333333327,0.09562326388888887,0.28080729166666674
108,area,narrow,0.02,0.98,4,3000,12000,288,0.415,0.8083197337962963,0.33685069444444443,trace_pvs_sdescriptor_mismatch_nominal_sim108.nc,0.7355,0.8807337962962963,0.6485726273148148,-0.32050000000000006,-0.07241406250000004,-0.31172193287037037
108,area,nominal,0.0,1.0,4,3000,12000,288,0.7355,0.8807337962962963,0.6485726273148148,trace_pvs_sdescriptor_mismatch_nominal_sim108.nc,0.7355,0.8807337962962963,0.6485726273148148,0.0,0.0,0.0
109,area,broad,-0.05,1.05,4,3000,12000,288,0.96025,0.9786493055555555,0.9397572337962963,trace_pvs_sdescriptor_mismatch_nominal_sim109.nc,0.7981666666666667,0.8843645833333333,0.7064670138888889,0.16208333333333336,0.09428472222222217,0.2332902199074074
109,area,narrow,0.02,0.98,4,3000,12000,288,0.5734166666666667,0.8109565972222222,0.4662540509259259,trace_pvs_sdescriptor_mismatch_nominal_sim109.nc,0.7981666666666667,0.8843645833333333,0.7064670138888889,-0.22475,-0.0734079861111111,-0.24021296296296296
109,area,nominal,0.0,1.0,4,3000,12000,288,0.7981666666666667,0.8843645833333333,0.7064670138888889,trace_pvs_sdescriptor_mismatch_nominal_sim109.nc,0.7981666666666667,0.8843645833333333,0.7064670138888889,0.0,0.0,0.0
110,area,broad,-0.05,1.05,4,3000,12000,288,0.94925,0.9815049189814815,0.9317118055555556,trace_pvs_sdescriptor_mismatch_nominal_sim110.nc,0.7609166666666667,0.9121142939814815,0.6943993055555555,0.18833333333333335,0.06939062500000004,0.23731250000000004
110,area,narrow,0.02,0.98,4,3000,12000,288,0.5400833333333334,0.8529615162037038,0.46169791666666665,trace_pvs_sdescriptor_mismatch_nominal_sim110.nc,0.7609166666666667,0.9121142939814815,0.6943993055555555,-0.22083333333333333,-0.05915277777777772,-0.23270138888888886
110,area,nominal,0.0,1.0,4,3000,12000,288,0.7609166666666667,0.9121142939814815,0.6943993055555555,trace_pvs_sdescriptor_mismatch_nominal_sim110.nc,0.7609166666666667,0.9121142939814815,0.6943993055555555,0.0,0.0,0.0
111,area,broad,-0.05,1.05,4,3000,12000,288,0.9771666666666666,0.9834855324074074,0.961017650462963,trace_pvs_sdescriptor_mismatch_nominal_sim111.nc,0.8743333333333333,0.9213272569444444,0.8057815393518518,0.10283333333333333,0.06215827546296304,0.15523611111111113
111,area,narrow,0.02,0.98,4,3000,12000,288,0.7243333333333334,0.8571125578703703,0.6214074074074074,trace_pvs_sdescriptor_mismatch_nominal_sim111.nc,0.8743333333333333,0.9213272569444444,0.8057815393518518,-0.1499999999999999,-0.06421469907407407,-0.1843741319444444
111,area,nominal,0.0,1.0,4,3000,12000,288,0.8743333333333333,0.9213272569444444,0.8057815393518518,trace_pvs_sdescriptor_mismatch_nominal_sim111.nc,0.8743333333333333,0.9213272569444444,0.8057815393518518,0.0,0.0,0.0
112,area,broad,-0.05,1.05,4,3000,12000,288,0.9955833333333334,0.9891684027777777,0.9848052662037037,trace_pvs_sdescriptor_mismatch_nominal_sim112.nc,0.9654166666666667,0.9259858217592593,0.8941307870370371,0.030166666666666675,0.06318258101851848,0.0906744791666666
112,area,narrow,0.02,0.98,4,3000,12000,288,0.881,0.8535205439814815,0.7525416666666667,trace_pvs_sdescriptor_mismatch_nominal_sim112.nc,0.9654166666666667,0.9259858217592593,0.8941307870370371,-0.0844166666666667,-0.07246527777777778,-0.1415891203703704
112,area,nominal,0.0,1.0,4,3000,12000,288,0.9654166666666667,0.9259858217592593,0.8941307870370371,trace_pvs_sdescriptor_mismatch_nominal_sim112.nc,0.9654166666666667,0.9259858217592593,0.8941307870370371,0.0,0.0,0.0
113,area,broad,-0.05,1.05,4,3000,12000,288,0.9968333333333333,0.9842063078703703,0.9810986689814815,trace_pvs_sdescriptor_mismatch_nominal_sim113.nc,0.96025,0.9147977430555555,0.8785648148148149,0.0365833333333333,0.06940856481481483,0.1025338541666666
113,area,narrow,0.02,0.98,4,3000,12000,288,0.8630833333333333,0.8451004050925925,0.7303284143518518,trace_pvs_sdescriptor_mismatch_nominal_sim113.nc,0.96025,0.9147977430555555,0.8785648148148149,-0.09716666666666673,-0.06969733796296296,-0.14823640046296305
113,area,nominal,0.0,1.0,4,3000,12000,288,0.96025,0.9147977430555555,0.8785648148148149,trace_pvs_sdescriptor_mismatch_nominal_sim113.nc,0.96025,0.9147977430555555,0.8785648148148149,0.0,0.0,0.0
114,area,broad,-0.05,1.05,4,3000,12000,288,0.9659166666666666,0.9699994212962963,0.9369473379629629,trace_pvs_sdescriptor_mismatch_nominal_sim114.nc,0.7820833333333334,0.868923900462963,0.6799079861111111,0.1838333333333333,0.10107552083333338,0.2570393518518518
114,area,narrow,0.02,0.98,4,3000,12000,288,0.5271666666666667,0.7896435185185186,0.417125,trace_pvs_sdescriptor_mismatch_nominal_sim114.nc,0.7820833333333334,0.868923900462963,0.6799079861111111,-0.2549166666666667,-0.07928038194444442,-0.2627829861111111
114,area,nominal,0.0,1.0,4,3000,12000,288,0.7820833333333334,0.868923900462963,0.6799079861111111,trace_pvs_sdescriptor_mismatch_nominal_sim114.nc,0.7820833333333334,0.868923900462963,0.6799079861111111,0.0,0.0,0.0
115,area,broad,-0.05,1.05,4,3000,12000,288,0.93975,0.9804962384259259,0.9214626736111111,trace_pvs_sdescriptor_mismatch_nominal_sim115.nc,0.7081666666666667,0.9136556712962963,0.6475674189814815,0.23158333333333325,0.0668405671296296,0.2738952546296296
115,area,narrow,0.02,0.98,4,3000,12000,288,0.4405833333333333,0.8545353009259259,0.3776278935185185,trace_pvs_sdescriptor_mismatch_nominal_sim115.nc,0.7081666666666667,0.9136556712962963,0.6475674189814815,-0.2675833333333334,-0.059120370370370434,-0.269939525462963
115,area,nominal,0.0,1.0,4,3000,12000,288,0.7081666666666667,0.9136556712962963,0.6475674189814815,trace_pvs_sdescriptor_mismatch_nominal_sim115.nc,0.7081666666666667,0.9136556712962963,0.6475674189814815,0.0,0.0,0.0
116,area,broad,-0.05,1.05,4,3000,12000,288,0.9184166666666667,0.9838168402777778,0.9036278935185185,trace_pvs_sdescriptor_mismatch_nominal_sim116.nc,0.6178333333333333,0.9330034722222222,0.5771429398148148,0.3005833333333333,0.050813368055555586,0.3264849537037037
116,area,narrow,0.02,0.98,4,3000,12000,288,0.35425,0.8859513888888889,0.3147974537037037,trace_pvs_sdescriptor_mismatch_nominal_sim116.nc,0.6178333333333333,0.9330034722222222,0.5771429398148148,-0.26358333333333334,-0.04705208333333333,-0.2623454861111111
116,area,nominal,0.0,1.0,4,3000,12000,288,0.6178333333333333,0.9330034722222222,0.5771429398148148,trace_pvs_sdescriptor_mismatch_nominal_sim116.nc,0.6178333333333333,0.9330034722222222,0.5771429398148148,0.0,0.0,0.0
117,area,broad,-0.05,1.05,4,3000,12000,288,0.9804166666666667,0.9736455439814815,0.954609375,trace_pvs_sdescriptor_mismatch_nominal_sim117.nc,0.858,0.8713046875,0.7480688657407407,0.12241666666666673,0.1023408564814815,0.20654050925925926
117,area,narrow,0.02,0.98,4,3000,12000,288,0.5893333333333334,0.7925196759259259,0.4685078125,trace_pvs_sdescriptor_mismatch_nominal_sim117.nc,0.858,0.8713046875,0.7480688657407407,-0.2686666666666666,-0.07878501157407414,-0.2795610532407407
117,area,nominal,0.0,1.0,4,3000,12000,288,0.858,0.8713046875,0.7480688657407407,trace_pvs_sdescriptor_mismatch_nominal_sim117.nc,0.858,0.8713046875,0.7480688657407407,0.0,0.0,0.0
118,area,broad,-0.05,1.05,4,3000,12000,288,0.9580833333333333,0.9787335069444445,0.9377123842592593,trace_pvs_sdescriptor_mismatch_nominal_sim118.nc,0.7941666666666667,0.9008214699074074,0.7157407407407408,0.1639166666666666,0.07791203703703709,0.2219716435185185
118,area,narrow,0.02,0.98,4,3000,12000,288,0.5703333333333334,0.8298836805555555,0.4740818865740741,trace_pvs_sdescriptor_mismatch_nominal_sim118.nc,0.7941666666666667,0.9008214699074074,0.7157407407407408,-0.22383333333333333,-0.07093778935185191,-0.24165885416666671
118,area,nominal,0.0,1.0,4,3000,12000,288,0.7941666666666667,0.9008214699074074,0.7157407407407408,trace_pvs_sdescriptor_mismatch_nominal_sim118.nc,0.7941666666666667,0.9008214699074074,0.7157407407407408,0.0,0.0,0.0
119,area,broad,-0.05,1.05,4,3000,12000,288,0.9355,0.9702294560185185,0.9077473958333333,trace_pvs_sdescriptor_mismatch_nominal_sim119.nc,0.60425,0.9159001736111111,0.554931712962963,0.33125000000000004,0.05432928240740742,0.35281568287037035
119,area,narrow,0.02,0.98,4,3000,12000,288,0.2851666666666667,0.8733822337962963,0.25050868055555553,trace_pvs_sdescriptor_mismatch_nominal_sim119.nc,0.60425,0.9159001736111111,0.554931712962963,-0.3190833333333333,-0.042517939814814776,-0.3044230324074074
119,area,nominal,0.0,1.0,4,3000,12000,288,0.60425,0.9159001736111111,0.554931712962963,trace_pvs_sdescriptor_mismatch_nominal_sim119.nc,0.60425,0.9159001736111111,0.554931712962963,0.0,0.0,0.0
120,area,broad,-0.05,1.05,4,3000,12000,288,0.9601666666666666,0.9894097222222222,0.950019386574074,trace_pvs_sdescriptor_mismatch_nominal_sim120.nc,0.7925,0.9473781828703703,0.7512149884259259,0.16766666666666663,0.04203153935185189,0.1988043981481481
120,area,narrow,0.02,0.98,4,3000,12000,288,0.5940833333333333,0.9030943287037037,0.5374403935185185,trace_pvs_sdescriptor_mismatch_nominal_sim120.nc,0.7925,0.9473781828703703,0.7512149884259259,-0.19841666666666669,-0.04428385416666669,-0.21377459490740747
120,area,nominal,0.0,1.0,4,3000,12000,288,0.7925,0.9473781828703703,0.7512149884259259,trace_pvs_sdescriptor_mismatch_nominal_sim120.nc,0.7925,0.9473781828703703,0.7512149884259259,0.0,0.0,0.0
121,area,broad,-0.05,1.05,4,3000,12000,288,0.9674166666666667,0.9889762731481482,0.9567624421296296,trace_pvs_sdescriptor_mismatch_nominal_sim121.nc,0.8550833333333333,0.942845775462963,0.8064979745370371,0.1123333333333334,0.04613049768518518,0.1502644675925925
121,area,narrow,0.02,0.98,4,3000,12000,288,0.7025833333333333,0.8962543402777777,0.6305069444444444,trace_pvs_sdescriptor_mismatch_nominal_sim121.nc,0.8550833333333333,0.942845775462963,0.8064979745370371,-0.15249999999999997,-0.04659143518518527,-0.17599103009259265
121,area,nominal,0.0,1.0,4,3000,12000,288,0.8550833333333333,0.942845775462963,0.8064979745370371,trace_pvs_sdescriptor_mismatch_nominal_sim121.nc,0.8550833333333333,0.942845775462963,0.8064979745370371,0.0,0.0,0.0
122,area,broad,-0.05,1.05,4,3000,12000,288,0.9271666666666667,0.9688009259259259,0.8982913773148148,trace_pvs_sdescriptor_mismatch_nominal_sim122.nc,0.6988333333333333,0.8705419560185185,0.6087306134259259,0.2283333333333334,0.09825896990740746,0.28956076388888885
122,area,narrow,0.02,0.98,4,3000,12000,288,0.47558333333333336,0.8034953703703703,0.38271498842592594,trace_pvs_sdescriptor_mismatch_nominal_sim122.nc,0.6988333333333333,0.8705419560185185,0.6087306134259259,-0.22324999999999995,-0.06704658564814814,-0.226015625
122,area,nominal,0.0,1.0,4,3000,12000,288,0.6988333333333333,0.8705419560185185,0.6087306134259259,trace_pvs_sdescriptor_mismatch_nominal_sim122.nc,0.6988333333333333,0.8705419560185185,0.6087306134259259,0.0,0.0,0.0
123,area,broad,-0.05,1.05,4,3000,12000,288,0.9781666666666666,0.9848955439814815,0.9633993055555555,trace_pvs_sdescriptor_mismatch_nominal_sim123.nc,0.8883333333333333,0.9230118634259259,0.8201397569444444,0.08983333333333332,0.0618836805555556,0.14325954861111112
123,area,narrow,0.02,0.98,4,3000,12000,288,0.75075,0.8628706597222222,0.64840625,trace_pvs_sdescriptor_mismatch_nominal_sim123.nc,0.8883333333333333,0.9230118634259259,0.8201397569444444,-0.13758333333333328,-0.06014120370370368,-0.17173350694444445
123,area,nominal,0.0,1.0,4,3000,12000,288,0.8883333333333333,0.9230118634259259,0.8201397569444444,trace_pvs_sdescriptor_mismatch_nominal_sim123.nc,0.8883333333333333,0.9230118634259259,0.8201397569444444,0.0,0.0,0.0
124,area,broad,-0.05,1.05,4,3000,12000,288,0.98225,0.9871090856481481,0.9695951967592593,trace_pvs_sdescriptor_mismatch_nominal_sim124.nc,0.9034166666666666,0.9229244791666666,0.8339684606481481,0.07883333333333331,0.0641846064814815,0.1356267361111112
124,area,narrow,0.02,0.98,4,3000,12000,288,0.7754166666666666,0.8592566550925926,0.6668460648148148,trace_pvs_sdescriptor_mismatch_nominal_sim124.nc,0.9034166666666666,0.9229244791666666,0.8339684606481481,-0.128,-0.06366782407407401,-0.16712239583333333
124,area,nominal,0.0,1.0,4,3000,12000,288,0.9034166666666666,0.9229244791666666,0.8339684606481481,trace_pvs_sdescriptor_mismatch_nominal_sim124.nc,0.9034166666666666,0.9229244791666666,0.8339684606481481,0.0,0.0,0.0
125,area,broad,-0.05,1.05,4,3000,12000,288,0.9703333333333334,0.9915810185185185,0.9621880787037037,trace_pvs_sdescriptor_mismatch_nominal_sim125.nc,0.8563333333333333,0.9335711805555555,0.7996478587962963,0.1140000000000001,0.058009837962962996,0.1625402199074074
125,area,narrow,0.02,0.98,4,3000,12000,288,0.69025,0.8708897569444445,0.6016770833333334,trace_pvs_sdescriptor_mismatch_nominal_sim125.nc,0.8563333333333333,0.9335711805555555,0.7996478587962963,-0.16608333333333325,-0.06268142361111106,-0.19797077546296293
125,area,nominal,0.0,1.0,4,3000,12000,288,0.8563333333333333,0.9335711805555555,0.7996478587962963,trace_pvs_sdescriptor_mismatch_nominal_sim125.nc,0.8563333333333333,0.9335711805555555,0.7996478587962963,0.0,0.0,0.0
126,area,broad,-0.05,1.05,4,3000,12000,288,0.96475,0.9745095486111112,0.9401712962962963,trace_pvs_sdescriptor_mismatch_nominal_sim126.nc,0.8088333333333333,0.8936316550925926,0.723205150462963,0.1559166666666667,0.0808778935185186,0.2169661458333333
126,area,narrow,0.02,0.98,4,3000,12000,288,0.6118333333333333,0.829146412037037,0.5079936342592593,trace_pvs_sdescriptor_mismatch_nominal_sim126.nc,0.8088333333333333,0.8936316550925926,0.723205150462963,-0.19699999999999995,-0.06448524305555559,-0.2152115162037037
126,area,nominal,0.0,1.0,4,3000,12000,288,0.8088333333333333,0.8936316550925926,0.723205150462963,trace_pvs_sdescriptor_mismatch_nominal_sim126.nc,0.8088333333333333,0.8936316550925926,0.723205150462963,0.0,0.0,0.0
127,area,broad,-0.05,1.05,4,3000,12000,288,0.9836666666666667,0.9764600694444444,0.9605104166666667,trace_pvs_sdescriptor_mismatch_nominal_sim127.nc,0.8971666666666667,0.9023723958333333,0.8097902199074074,0.08650000000000002,0.07408767361111113,0.1507201967592593
127,area,narrow,0.02,0.98,4,3000,12000,288,0.76175,0.8348932291666666,0.6366478587962963,trace_pvs_sdescriptor_mismatch_nominal_sim127.nc,0.8971666666666667,0.9023723958333333,0.8097902199074074,-0.13541666666666663,-0.06747916666666665,-0.17314236111111114
127,area,nominal,0.0,1.0,4,3000,12000,288,0.8971666666666667,0.9023723958333333,0.8097902199074074,trace_pvs_sdescriptor_mismatch_nominal_sim127.nc,0.8971666666666667,0.9023723958333333,0.8097902199074074,0.0,0.0,0.0
128,area,broad,-0.05,1.05,4,3000,12000,288,0.9543333333333334,0.9789777199074075,0.9342783564814815,trace_pvs_sdescriptor_mismatch_nominal_sim128.nc,0.8036666666666666,0.9005983796296296,0.724046875,0.15066666666666673,0.07837934027777782,0.21023148148148152
128,area,narrow,0.02,0.98,4,3000,12000,288,0.6335,0.8346782407407407,0.5295396412037037,trace_pvs_sdescriptor_mismatch_nominal_sim128.nc,0.8036666666666666,0.9005983796296296,0.724046875,-0.1701666666666667,-0.06592013888888892,-0.1945072337962963
128,area,nominal,0.0,1.0,4,3000,12000,288,0.8036666666666666,0.9005983796296296,0.724046875,trace_pvs_sdescriptor_mismatch_nominal_sim128.nc,0.8036666666666666,0.9005983796296296,0.724046875,0.0,0.0,0.0
129,area,broad,-0.05,1.05,4,3000,12000,288,0.9649166666666666,0.9862323495370371,0.9516368634259259,trace_pvs_sdescriptor_mismatch_nominal_sim129.nc,0.8334166666666667,0.9304421296296296,0.7757618634259259,0.13149999999999995,0.05579021990740751,0.175875
129,area,narrow,0.02,0.98,4,3000,12000,288,0.6553333333333333,0.8771484375,0.5758162615740741,trace_pvs_sdescriptor_mismatch_nominal_sim129.nc,0.8334166666666667,0.9304421296296296,0.7757618634259259,-0.17808333333333337,-0.05329369212962953,-0.19994560185185184
129,area,nominal,0.0,1.0,4,3000,12000,288,0.8334166666666667,0.9304421296296296,0.7757618634259259,trace_pvs_sdescriptor_mismatch_nominal_sim129.nc,0.8334166666666667,0.9304421296296296,0.7757618634259259,0.0,0.0,0.0
130,area,broad,-0.05,1.05,4,3000,12000,288,0.98175,0.9785396412037037,0.9607042824074075,trace_pvs_sdescriptor_mismatch_nominal_sim130.nc,0.8375,0.8895324074074074,0.7455347222222222,0.14425,0.08900723379629638,0.2151695601851853
130,area,narrow,0.02,0.98,4,3000,12000,288,0.48483333333333334,0.8025630787037037,0.39098495370370373,trace_pvs_sdescriptor_mismatch_nominal_sim130.nc,0.8375,0.8895324074074074,0.7455347222222222,-0.3526666666666667,-0.08696932870370366,-0.35454976851851844
130,area,nominal,0.0,1.0,4,3000,12000,288,0.8375,0.8895324074074074,0.7455347222222222,trace_pvs_sdescriptor_mismatch_nominal_sim130.nc,0.8375,0.8895324074074074,0.7455347222222222,0.0,0.0,0.0
131,area,broad,-0.05,1.05,4,3000,12000,288,0.99125,0.9867757523148148,0.9781423611111111,trace_pvs_sdescriptor_mismatch_nominal_sim131.nc,0.94975,0.9276342592592592,0.8811935763888888,0.04149999999999998,0.059141493055555605,0.09694878472222224
131,area,narrow,0.02,0.98,4,3000,12000,288,0.857,0.8594435763888889,0.7373101851851852,trace_pvs_sdescriptor_mismatch_nominal_sim131.nc,0.94975,0.9276342592592592,0.8811935763888888,-0.09275,-0.06819068287037033,-0.14388339120370364
131,area,nominal,0.0,1.0,4,3000,12000,288,0.94975,0.9276342592592592,0.8811935763888888,trace_pvs_sdescriptor_mismatch_nominal_sim131.nc,0.94975,0.9276342592592592,0.8811935763888888,0.0,0.0,0.0
132,area,broad,-0.05,1.05,4,3000,12000,288,0.9576666666666667,0.9765532407407408,0.935236400462963,trace_pvs_sdescriptor_mismatch_nominal_sim132.nc,0.7371666666666666,0.9138249421296296,0.6744458912037037,0.22050000000000003,0.06272829861111118,0.2607905092592593
132,area,narrow,0.02,0.98,4,3000,12000,288,0.436,0.856298900462963,0.37495225694444445,trace_pvs_sdescriptor_mismatch_nominal_sim132.nc,0.7371666666666666,0.9138249421296296,0.6744458912037037,-0.30116666666666664,-0.05752604166666664,-0.29949363425925923
132,area,nominal,0.0,1.0,4,3000,12000,288,0.7371666666666666,0.9138249421296296,0.6744458912037037,trace_pvs_sdescriptor_mismatch_nominal_sim132.nc,0.7371666666666666,0.9138249421296296,0.6744458912037037,0.0,0.0,0.0
133,area,broad,-0.05,1.05,4,3000,12000,288,0.98675,0.9844244791666666,0.9713813657407407,trace_pvs_sdescriptor_mismatch_nominal_sim133.nc,0.9166666666666666,0.923535011574074,0.8467447916666667,0.07008333333333339,0.06088946759259262,0.12463657407407402
133,area,narrow,0.02,0.98,4,3000,12000,288,0.78875,0.8608327546296296,0.6796232638888889,trace_pvs_sdescriptor_mismatch_nominal_sim133.nc,0.9166666666666666,0.923535011574074,0.8467447916666667,-0.12791666666666668,-0.06270225694444442,-0.16712152777777778
133,area,nominal,0.0,1.0,4,3000,12000,288,0.9166666666666666,0.923535011574074,0.8467447916666667,trace_pvs_sdescriptor_mismatch_nominal_sim133.nc,0.9166666666666666,0.923535011574074,0.8467447916666667,0.0,0.0,0.0
134,area,broad,-0.05,1.05,4,3000,12000,288,0.976,0.9788396990740741,0.9553547453703704,trace_pvs_sdescriptor_mismatch_nominal_sim134.nc,0.8349166666666666,0.8777641782407407,0.7332711226851852,0.14108333333333334,0.10107552083333338,0.2220836226851851
134,area,narrow,0.02,0.98,4,3000,12000,288,0.5616666666666666,0.7946394675925926,0.44722685185185185,trace_pvs_sdescriptor_mismatch_nominal_sim134.nc,0.8349166666666666,0.8777641782407407,0.7332711226851852,-0.27325,-0.08312471064814808,-0.2860442708333334
134,area,nominal,0.0,1.0,4,3000,12000,288,0.8349166666666666,0.8777641782407407,0.7332711226851852,trace_pvs_sdescriptor_mismatch_nominal_sim134.nc,0.8349166666666666,0.8777641782407407,0.7332711226851852,0.0,0.0,0.0
135,area,broad,-0.05,1.05,4,3000,12000,288,0.9420833333333334,0.9745700231481481,0.9181637731481481,trace_pvs_sdescriptor_mismatch_nominal_sim135.nc,0.7100833333333333,0.9157427662037037,0.650777488425926,0.2320000000000001,0.05882725694444446,0.26738628472222215
135,area,narrow,0.02,0.98,4,3000,12000,288,0.48383333333333334,0.8663833912037037,0.42007118055555553,trace_pvs_sdescriptor_mismatch_nominal_sim135.nc,0.7100833333333333,0.9157427662037037,0.650777488425926,-0.22624999999999995,-0.04935937499999998,-0.23070630787037044
135,area,nominal,0.0,1.0,4,3000,12000,288,0.7100833333333333,0.9157427662037037,0.650777488425926,trace_pvs_sdescriptor_mismatch_nominal_sim135.nc,0.7100833333333333,0.9157427662037037,0.650777488425926,0.0,0.0,0.0
136,area,broad,-0.05,1.05,4,3000,12000,288,0.96625,0.9818200231481482,0.9487178819444444,trace_pvs_sdescriptor_mismatch_nominal_sim136.nc,0.8255833333333333,0.9064343171296296,0.7487641782407407,0.14066666666666672,0.07538570601851857,0.1999537037037037
136,area,narrow,0.02,0.98,4,3000,12000,288,0.6365,0.8391938657407407,0.5351085069444445,trace_pvs_sdescriptor_mismatch_nominal_sim136.nc,0.8255833333333333,0.9064343171296296,0.7487641782407407,-0.18908333333333338,-0.0672404513888889,-0.21365567129629626
136,area,nominal,0.0,1.0,4,3000,12000,288,0.8255833333333333,0.9064343171296296,0.7487641782407407,trace_pvs_sdescriptor_mismatch_nominal_sim136.nc,0.8255833333333333,0.9064343171296296,0.7487641782407407,0.0,0.0,0.0
137,area,broad,-0.05,1.05,4,3000,12000,288,0.9866666666666667,0.9875526620370371,0.9743804976851852,trace_pvs_sdescriptor_mismatch_nominal_sim137.nc,0.9185,0.9283344907407407,0.8527815393518519,0.06816666666666671,0.05921817129629636,0.12159895833333334
137,area,narrow,0.02,0.98,4,3000,12000,288,0.8004166666666667,0.8614207175925926,0.6899441550925925,trace_pvs_sdescriptor_mismatch_nominal_sim137.nc,0.9185,0.9283344907407407,0.8527815393518519,-0.11808333333333332,-0.06691377314814806,-0.1628373842592593
137,area,nominal,0.0,1.0,4,3000,12000,288,0.9185,0.9283344907407407,0.8527815393518519,trace_pvs_sdescriptor_mismatch_nominal_sim137.nc,0.9185,0.9283344907407407,0.8527815393518519,0.0,0.0,0.0
138,area,broad,-0.05,1.05,4,3000,12000,288,0.963,0.9823009259259259,0.9459736689814815,trace_pvs_sdescriptor_mismatch_nominal_sim138.nc,0.8201666666666667,0.898517650462963,0.7371686921296297,0.14283333333333326,0.08378327546296294,0.20880497685185184
